fabianarroyave/Unir/cinematica_brazo_robotico.csv
theta1;theta2;theta3;theta4;theta5;theta6;theta7;theta8;y
-0.015119208;0.36074091;0.46939777;13.096.745;0.98802387;-0.025492554;0.66407094;0.062762996;0.53652416
0.36047801;-0.30139478;0.62918307;-14.401.463;-0.74163685;-11.967.495;-10.384.439;-0.7174612;0.3080143
15.632.379;-12.947.529;0.078987171;14.329.368;11.491.364;-12.921.402;15.629.882;-0.93773069;0.51889978
0.19948468;0.90115659;-13.563.042;-0.080524638;-0.97662848;0.82989378;-0.85564902;0.93062954;0.49415079
0.65973667;0.12055156;-0.0087562194;0.64883889;0.62683171;-0.64653937;13.180.738;-0.8991723;0.47021765
15.136.662;-0.21721217;0.48907586;0.56705131;14.003.115;0.38172143;14.959.806;-13.281.023;0.28517032
-0.42916947;-0.15432012;14.916.375;-11.607.759;13.649.491;0.45987858;0.78013127;-0.40000056;0.52743972
0.045435426;12.972.702;0.04172363;0.12943647;0.78913725;0.86135091;-13.414.275;0.19887659;11.177.628
0.22619045;0.56802604;0.67388457;14.566.167;-0.77444761;0.26581168;-13.026.241;-0.13569806;0.5745679
0.25574014;-0.48646636;0.53642514;-10.744.508;-0.5225387;0.15208582;0.55605189;0.11900247;0.79019284
0.52576581;15.255.593;-0.67358732;-0.4195961;-15.565.182;-11.500.165;-0.67409671;-11.199.496;0.67938934
-0.75409541;15.374.519;13.178.684;0.72393068;-0.36011512;-12.494.858;-0.96025625;14.309.194;0.57751391
-0.8967911;0.3551291;11.862.098;-0.28548339;13.942.862;14.385.891;-0.66534825;0.5706901;0.54140341
0.99347572;-0.37127026;0.081449761;-0.90731517;0.62903747;0.6693608;15.617.882;0.30619354;0.62963212
-0.21854018;-0.73622589;-0.80825886;0.044664244;0.77353236;-0.096277706;0.96804199;0.26606137;12.299.687
-0.48304739;0.98492065;-0.16008452;-0.16868901;0.8479473;-0.21918561;-0.42659888;12.071.212;0.94067874
-0.70202732;0.50975332;-1.337.229;-1.439.567;11.860.183;12.356.681;-0.73290792;-0.31971355;13.044.195
0.84890688;0.30083374;0.14616293;-13.981.803;0.0040777898;-11.944.747;0.20142198;-13.022.388;0.61655412
-15.359.397;12.900.445;-0.16501629;-0.10376638;-0.57962538;-0.75990029;-13.377.046;0.74890609;0.63863788
-0.0713515;-14.938.764;0.59745815;-0.41770934;0.31498155;-10.700.519;-15.633.567;-14.971.342;0.62526404
0.88373901;0.027981876;0.94892602;10.187.642;0.31125447;12.560.535;0.94559753;-13.189.854;0.37683645
-0.44847905;-0.94751475;-12.662.242;0.69072685;0.50203626;-10.119.485;-0.6595325;-11.106.774;11.351.477
-0.90662327;-0.14723249;-0.28089623;0.86126749;-0.59439056;0.76346047;-12.239.095;0.18785035;0.88741745
-0.8929385;10.384.792;0.79082759;-11.362.771;0.34250282;12.157.264;0.90241171;-0.099826331;0.46601327
-0.22918853;-0.96954996;-0.63915664;0.33313937;10.471.561;-0.20584408;-0.77568326;-0.17066987;13.441.938
-0.37902806;0.21493572;-12.004.137;0.75536518;0.35027565;-0.7279482;0.70092802;-0.17440831;10.074.333
0.82526422;-0.4068344;-0.044819061;0.24662562;-0.26184741;-12.635.992;-0.47527851;-0.17452203;0.81236277
0.084224076;-1.560.119;0.70828526;12.761.265;0.50184828;-0.14609317;10.642.746;10.557.551;0.58446871
-13.042.462;-11.884.058;0.65572137;0.2056606;-0.61223676;13.375.583;-0.96577055;0.35989512;0.8702878
15.674.126;0.70971984;0.0019562323;0.78575701;-11.473.617;-0.89409122;0.9035666;11.913.925;0.58425999
12.487.533;-0.366011;14.624.705;-10.375.058;-0.61253707;-0.75348705;-0.21497101;-0.77730285;0.52122202
-11.845.123;-0.30847449;-0.080024553;-1.521.214;0.088574597;-0.096783148;-0.18618583;-13.866.696;10.426.291
0.17493348;-0.90282173;-0.3710041;-0.7621634;-0.44167289;0.71061882;-0.19889709;-1.422.196;0.8528549
-0.42377231;0.16774687;0.59544078;-14.069.705;0.3872305;-0.96475621;-0.20886786;15.300.024;0.15939153
-0.35073654;13.129.634;-15.410.831;-0.18606166;-11.970.095;-0.89801631;-12.831.606;0.81488019;11.956.055
-1.201.234;0.42858738;14.481.101;-12.536.457;0.62056057;-0.7489988;0.95349152;14.890.531;0.69272769
-12.659.781;-0.40383153;0.46765658;0.63863535;-0.32619221;-0.061059077;0.067781217;0.58754522;0.8098084
0.71286766;-13.563.816;-0.36063826;-1.277.753;-0.23323602;10.808.974;-11.992.131;0.84673996;0.60346477
-0.86753878;-13.090.537;-11.149.833;0.73341353;0.70986103;-11.879.907;12.833.355;-0.25627032;11.264.575
-0.5928329;-0.69193034;0.075754084;-11.283.005;-11.345.393;14.034.904;-11.559.226;-0.011682848;0.81107379
13.893.216;0.90270106;0.85387046;-0.69360648;12.659.674;13.850.401;0.017653245;15.667.037;0.66601999
-11.304.668;0.94578989;0.20556672;10.062.508;-0.8925268;-0.83298842;13.883.847;-12.408.177;0.16067133
0.59678293;-0.56814579;-0.79203232;0.863632;0.40692487;-10.995.326;-11.678.187;-0.53153754;0.90508746
-0.97462155;-15.262.471;-0.75916994;0.90498158;-0.060898849;-0.99593113;11.419.747;11.381.542;0.99087222
-0.20037867;-0.5307344;-1.361.403;-15.661.481;0.63224943;-0.20885547;11.797.135;-0.20080303;11.605.411
0.022974055;-10.714.748;-0.88033648;11.532.746;13.497.381;-10.748.819;0.85289745;-0.82606505;10.504.132
-0.29094736;-0.6686577;10.862.226;-0.54009911;-0.39187098;-13.819.579;-0.43987739;-0.97741361;0.73385537
15.074.016;-0.65306035;0.34817918;-13.846.075;-13.973.144;-0.77201578;-0.85183699;-0.0026102489;0.22132653
10.950.623;0.73939005;-0.93969724;-13.214.585;-12.588.476;-0.49151434;-0.58664119;0.11184408;0.57695208
12.628.763;-12.120.054;-0.70516883;13.077.102;11.744.834;15.072.309;-13.607.575;10.910.499;11.722.645
0.5616837;-0.08790918;14.565.041;0.1029223;0.91615371;13.676.163;0.54391753;-0.20125735;0.35994711
-0.26791663;-0.9410331;0.1747585;-12.024.764;0.84979754;-15.061.953;-0.41273488;0.96301508;0.28333815
-0.97256636;-11.658.314;-0.22293939;-0.15578492;0.86707999;0.32972014;-0.19846652;-0.090846116;13.459.304
-0.21630768;-0.014287008;0.9776832;-13.304.892;-0.83494123;-0.16296822;0.74454418;-0.036647139;0.67822628
-0.66051887;-13.607.004;13.919.586;0.32525473;0.63711153;0.46188751;0.59054703;-0.17630119;0.24686742
10.477.574;15.028.454;-0.7916878;0.18506573;13.857.981;0.067898846;10.327.992;-0.57215495;0.81654611
10.310.845;-0.082002541;-12.519.808;0.22291916;-0.6589026;0.77777502;0.95615484;0.20680374;0.74152645
0.41286281;0.9424686;0.34674719;-13.177.742;-0.061878627;-0.10232295;0.84790161;11.490.335;0.70528018
-0.79289612;0.15956438;0.12557918;0.39659531;-0.12691079;-12.905.658;0.41813345;0.43647951;0.99175241
0.43099733;-11.215.383;-0.5410647;-0.88220492;0.15182817;-0.98401979;-0.17392956;0.29223178;0.78589652
-0.74058346;-0.13830495;1.236.346;10.992.216;0.80288442;-10.769.531;-15.529.457;12.301.933;0.59385283
0.0038858886;0.28723744;0.77328074;-10.895.073;0.93797376;15.066.037;-0.0063094508;10.373.619;0.828349
-0.66331628;-10.281.866;-0.23942031;0.99450765;0.013123861;0.25119485;0.77120996;-0.89723851;0.51830445
1.155.561;11.693.638;0.4430786;1.417.156;0.66124222;-0.46871404;-0.48551777;-0.24288656;0.85680827
0.18763412;-0.30702443;12.474.985;-14.146.745;-14.568.569;14.375.607;-13.810.736;-12.655.878;0.50022092
-0.59235426;14.771.964;-0.28240109;-0.86088572;0.17999484;-0.90582612;1.523.828;0.9894415;0.98412045
0.0091030553;-0.76680414;0.63133861;12.694.334;-0.18044583;-0.061585928;0.71398804;10.934.046;0.60887038
-0.94298964;-0.86410297;-13.918.973;0.81124675;-11.161.552;-14.907.009;-0.88698762;-14.663.998;11.949.203
0.50799229;0.60424631;-13.197.722;0.11199921;-0.77152273;-0.0080352348;-0.74371145;0.013135971;0.66761958
-10.224.892;-12.012.854;13.735.913;0.55676446;15.118.968;0.040292521;0.83889074;0.86477559;0.41543189
-0.46488361;10.125.032;15.262.201;-12.641.585;12.485.594;-13.876.056;-0.23123834;12.757.326;0.50710849
-0.1579202;-0.8658297;0.077296072;-0.1202641;-13.010.763;-14.442.792;-0.27269168;-0.13147167;0.83476123
0.48097814;-0.1425545;-15.042.822;-12.345.757;14.364.149;10.854.871;0.45458632;-11.047.273;0.71203666
0.48174648;11.217.509;10.665.344;0.70526164;-13.149.333;0.55303227;-0.12108917;-0.33958088;0.1598116
0.8288037;0.56904508;-0.6844191;0.10328733;1.020.312;-11.593.092;0.60631807;0.93795739;10.360.063
-0.11796206;0.93268978;14.804.833;-13.505.246;15.705.981;-0.35140067;-0.93868987;-0.2620568;0.64134995
-0.24343913;-0.83015231;10.696.464;-0.26075677;13.804.459;0.20308416;0.51770718;0.12426581;0.56168099
-11.278.375;-0.55685553;13.545.609;-0.017238347;0.49209838;14.658.005;-11.070.639;-0.62359969;0.52661844
0.80495439;-0.2664479;-10.165.199;-0.69837606;-11.160.108;-0.66112087;12.305.666;-0.48689141;0.70760228
11.704.253;-14.203.336;-0.66985287;-0.61630658;-14.848.034;0.35472859;1.027.863;0.66489041;0.87304188
-13.152.255;1.415.163;12.508.589;-0.43377262;-14.205.588;-0.8194632;-0.32539761;0.16808578;0.69099652
-0.74905717;-0.35344253;-0.35245113;12.201.957;0.77240689;0.024200082;0.55511342;0.72593414;0.96046348
-10.421.155;0.44315067;13.976.813;-0.48783664;0.7817341;14.653.206;-0.7388634;-11.707.443;0.19630649
-0.45623584;-0.68292554;11.409.926;0.48648138;0.46462142;0.69866563;0.6385196;-0.90460691;0.33287683
0.67195499;14.500.111;0.38057436;-12.731.219;-11.072.133;-0.80005107;-0.081602995;-15.614.873;0.38816368
-0.47805307;10.025.848;0.030585252;0.028540473;-12.811.208;-0.44171748;13.744.585;0.94867863;0.47022107
15.561.313;-10.604.639;-11.748.575;-0.98394093;0.6784865;-0.36228766;0.39375915;0.85893514;11.436.294
0.13935437;-0.96126964;-0.9202269;0.24844799;-0.65866879;-0.56219968;-14.257.179;0.50460795;11.052.736
-14.992.423;11.521.672;-0.19283292;0.48875168;0.72608987;10.206.682;-11.139.881;-13.544.164;0.80296923
0.94850184;-0.30283171;11.807.699;-0.81538137;14.465.208;12.740.674;10.940.395;0.30407523;0.39646365
10.292.799;-0.31240928;-0.24116235;-0.48752757;-11.104.684;0.15485977;-0.22037886;-0.77887631;0.61050498
14.973.256;-106.147;-0.56112627;-0.60227556;0.56014655;14.894.912;0.030228653;0.44251264;10.908.929
13.939.725;0.97873957;0.21184522;-0.2338451;-0.97007112;-14.740.847;-0.88503912;11.601.032;0.72730303
-15.029.446;0.296817;10.581.945;-0.1021701;0.88057459;-0.34261916;0.58868009;11.305.299;0.68618572
15.559.394;-0.24585931;0.51904372;12.783.853;-0.22591837;0.13906062;10.709.263;0.46351825;0.26131916
0.056499437;-0.96312267;-0.63501746;0.46965344;11.755.295;-0.15303216;0.87444096;-0.7985691;0.73648214
0.82506353;1.424.193;-0.74812389;-13.569.353;-0.35132006;0.95279822;0.35880534;-0.66697001;0.88095717
-0.14718711;0.61755526;-10.643.877;-11.897.192;1.557.867;0.98195229;-14.165.824;-0.56241986;12.203.113
-1.340.269;-0.57081828;-0.93588222;0.62588172;10.374.898;0.88600484;-15.116.445;0.46168087;13.424.423
-0.68236149;0.68116138;0.58194064;11.418.709;12.516.638;-0.06582807;-0.14980789;-0.26348415;0.60816582
15.052.708;0.31561723;0.89847309;-0.56477752;0.60894348;-0.53175131;-14.054.656;12.675.084;0.23973652
-0.15867039;15.703.312;-0.99867638;-14.643.619;-0.79574842;0.68676072;-0.024359828;-0.12546194;0.8056081
0.43890134;0.03710026;0.77555788;-0.29289817;-0.38381155;0.17600921;-10.085.834;-0.63015378;0.65753671
0.15530054;15.087.259;0.33343775;0.13616216;-10.309.951;-11.934.523;0.7720651;-0.68573093;0.59127035
-0.52724246;13.620.264;-0.5130509;13.980.234;10.906.238;0.71565904;13.204.002;14.236.666;0.63638754
10.687.718;-12.080.732;0.82528847;0.60830119;-10.788.423;-10.768.386;-0.24458117;11.953.192;0.6452021
-0.77881022;0.027686773;0.49168422;0.97568221;1.170.734;0.28834976;-14.724.769;-0.75449923;0.82609617
15.532.423;0.37587845;13.479.652;-0.82279604;0.73089789;-11.830.129;15.478.132;-14.005.758;0.49029809
-12.916.605;-0.35363455;12.262.338;0.55774463;0.57354046;0.24231856;-1.432.081;0.47546514;0.78361273
-0.53316283;0.35736985;0.46331185;-0.49845804;10.883.259;11.440.408;-12.441.841;-10.690.241;0.90718276
-10.453.584;-0.41006957;-11.258.952;10.432.506;11.416.875;13.471.563;-0.56209859;-0.31910533;12.048.732
-15.527.081;0.61496962;-11.079.804;0.68403653;-0.50628027;0.19712585;-0.42184618;-0.50456661;0.64780456
0.84489749;-0.04550247;15.346.334;15.145.038;15.220.159;-12.861.726;0.60588783;-10.924.631;0.59321578
0.19325095;-13.530.002;0.10821226;10.809.637;-14.671.354;0.59664917;12.549.983;-15.600.715;0.81586334
-0.43811988;-10.263.502;-0.25863835;-0.073425411;0.21582538;-0.081140813;0.10315795;-0.38860669;12.085.504
0.4123782;0.61679727;10.294.942;0.5850248;-11.622.742;-0.28244047;-0.38340505;0.058500695;0.63688665
0.48705554;-0.74411731;-11.833.092;-0.6731416;0.079852561;-0.03052595;-0.48206813;-0.097324146;10.935.504
-10.479.887;0.30075758;15.455.748;-0.61580942;0.62192128;-0.97004122;0.048453591;10.428.544;0.70179846
13.635.266;0.010105331;-13.539.912;-15.027.901;0.55225711;13.830.399;0.68701233;0.30815474;0.90773938
-11.270.913;0.1942981;11.663.177;10.111.553;15.206.004;0.1078397;12.632.785;-13.296.239;0.27140111
0.77993254;1.453.456;-12.366.025;-15.299.027;-0.12458843;-0.23704243;10.381.274;-0.84116124;0.86553581
-15.398.671;-0.79017606;11.987.245;0.86184829;14.846.294;-0.43269992;-0.59820021;-0.22996895;0.79507205
-0.10659627;-0.97685789;-0.071121725;-0.79959151;-15.042.684;0.39944792;-0.85444516;-0.9291515;0.58606676
-0.85574298;-0.087350408;-15.376.231;0.99879285;12.989.578;-0.062281893;-0.43977255;0.60778002;12.852.731
-0.26104328;-0.9745334;-0.089607085;11.819.326;0.65613404;-0.62142613;0.91020929;-15.004.437;0.44544464
1.450.605;1.281.299;-1.203.391;0.45028039;0.65459227;14.865.597;1.472.947;-0.3929544;0.58316327
15.598.181;-0.82466194;0.18029455;-0.23426728;-0.12511044;-0.47734902;0.069971296;-0.75686509;0.90976303
-0.727946;0.61359921;-14.264.137;-0.91450042;-10.057.325;0.82262741;10.519.265;-0.32283754;10.457.684
-12.266.692;-10.867.687;-0.24218089;-13.372.774;15.633.194;-0.25044885;-11.539.335;-0.39998776;0.89839244
-14.977.389;-0.10106472;11.698.666;-0.6673067;15.693.395;0.44024998;-11.092.513;0.41396598;0.67762025
10.836.986;10.067.941;-12.804.221;0.062055771;-0.92259368;0.83065906;-0.97572595;-11.015.158;0.41251925
-12.318.182;0.57004762;-0.1441216;-0.037410049;0.86939083;-0.35089412;0.08768602;0.23008467;11.067.183
-0.073675948;-10.672.386;-0.083827869;-0.43216425;0.30423528;-0.70803395;0.33198612;-0.26746562;11.686.622
-0.48414823;14.150.708;-14.614.892;-0.022309867;-12.304.747;0.42635998;0.22223983;0.32442811;0.34716132
-0.35433851;12.391.771;0.86347698;-11.124.119;0.51555338;-0.14062425;-0.1687702;-11.415.973;0.89832405
10.923.735;12.313.284;14.411.602;-0.68926296;0.39317782;-0.99417639;0.33740787;-11.191.387;0.68807487
0.054519505;12.658.265;-0.099836079;-13.904.924;13.703.378;10.087.177;0.23928143;-0.64957728;0.90528959
-10.357.329;-0.11972036;-0.33449481;0.30256475;0.25107218;14.842.098;0.3643713;-0.41093017;0.48907374
0.0021509921;-15.207.102;-15.450.299;-10.327.312;0.61118734;0.86824294;102.437;-12.827.572;0.69617017
-15.473.878;14.220.871;10.875.758;0.18604652;-0.78232439;-0.13870398;0.65922903;14.503.427;0.55841646
-0.84257301;-0.21915287;11.002.745;0.9991921;-0.96073079;-0.13599942;-0.73492914;0.29156198;0.76898642
1.175.128;-13.557.599;0.89992586;-15.326.368;0.78393589;13.371.376;0.78824267;-0.60225848;0.69788498
-0.81603565;-0.28483447;14.268.282;-11.082.219;-0.22901051;14.593.896;-0.10159638;0.053334146;0.47800018
10.824.104;0.57430092;0.92456752;0.616795;-0.52857195;15.465.673;14.960.931;10.330.931;0.42453349
-0.89100972;13.029.562;0.8890734;-0.78222757;0.715236;-0.38161028;-0.47116792;-0.38614597;0.89823042
0.77176668;-12.581.495;12.420.251;0.66652812;12.380.156;14.082.372;1.035.785;0.57502518;0.40411978
-0.55346483;0.34130279;-11.678.894;-0.58129761;0.55935879;-0.51701561;0.87379488;0.90919912;11.713.728
0.17245843;-0.27222079;-0.046991607;0.48425303;14.979.454;0.16387984;-10.750.869;0.20293719;10.360.416
-11.811.045;-10.559.447;-12.481.761;-10.259.455;-0.75450387;-0.84834628;14.558.387;-10.042.361;10.250.167
0.90124034;-0.40572163;14.605.902;11.364.408;-14.785.912;15.330.751;15.568.006;-15.602.348;0.54436687
15.282.708;14.342.202;-0.26529727;-0.72287625;-0.68504477;-0.94957241;-11.769.906;0.0070557146;0.74079821
-0.014509235;-0.50180728;-0.93131784;-0.84231014;0.38965722;-0.17285596;0.9281213;-0.79512537;1.038.361
11.875.074;13.013.686;-12.444.067;-0.68999636;-12.517.455;0.78306954;0.92712942;0.66297878;0.63831186
-0.10182816;0.33408529;-11.612.861;-11.502.582;11.590.817;0.91817822;-0.035367464;-0.54485422;10.474.024
0.74210419;0.94545316;0.98024202;0.97163757;-0.3306213;0.3182736;-0.65996171;0.37776794;0.64949058
0.42225197;0.055616811;0.4157124;0.31396445;0.72522594;-0.90785677;0.9871373;-0.012945734;0.71858947
-0.068934867;-14.428.737;-0.023696616;-10.751.023;-0.5071912;0.36676985;0.065878826;-0.809065;10.205.836
0.65937547;-0.42469586;0.71325022;11.971.315;-12.216.849;0.49610789;13.848.064;-11.424.275;0.55120546
-14.154.104;-0.16486067;-0.72108075;14.292.305;0.59207065;0.298432;1.523.537;0.63567505;0.79384142
-0.6632367;0.071483241;10.603.134;0.45915044;15.075.215;-13.767.879;-10.347.524;-0.76607478;0.76012863
-0.64843533;13.304.425;-15.682.681;11.898.534;-0.031604021;12.978.002;0.77350649;-1.172.198;0.92326194
-0.067618509;-11.098.343;0.080454987;-15.134.861;-0.23962706;0.050377918;0.41312153;-0.20398421;0.9430906
0.79226518;-135.003;13.221.295;0.31473619;0.1097778;-15.283.458;0.41386725;-0.88510231;0.58502247
15.311.321;-13.722.119;0.54623085;-0.67080589;0.92058282;-1.246.424;0.38068243;-0.47324385;0.79821997
0.95217517;-0.33379142;0.76809246;0.94142434;-0.1082956;-0.50869444;-12.945.987;0.70314038;0.69610955
-0.064862618;0.85204381;0.52580235;14.582.886;-11.420.735;-13.538.082;0.3508157;-0.99124286;0.52421871
-0.013374181;0.92104842;-0.14010225;-12.498.937;0.30174712;11.008.623;-0.60989258;0.04716634;10.571.889
14.148.163;14.338.339;14.959.888;0.86738604;0.93323801;13.527.371;0.55218314;10.433.354;0.40101153
0.10305292;-0.71098742;0.91841005;11.672.939;-10.409.268;-0.25437162;0.27734543;-10.317.898;0.39875179
0.99282204;10.528.361;10.729.509;-0.53770568;0.6730569;0.48385656;-0.77884853;0.29952059;0.83248063
1.361.454;15.663.848;0.34461354;11.427.659;-0.80781776;-14.061.792;0.90935102;12.110.993;0.81521701
-14.033.819;-0.31726261;-1.177.033;-12.302.034;0.97038041;0.54738442;-0.3856123;0.56698818;14.275.434
0.43734336;-0.95003098;0.21479559;-12.071.862;11.761.459;13.066.762;0.11973036;0.91980252;0.94017212
-0.89702576;15.448.228;0.37951963;-0.77252648;0.58337692;-15.677.124;-1.452.681;-0.65650124;0.23659981
0.19122203;-14.271.463;11.533.876;0.34982512;-0.094713463;-0.0044326952;1.248.294;-0.54290862;0.24862364
0.019298047;0.01123205;13.581.114;-15.507.281;0.93830042;0.89791582;0.52077447;-14.801.651;0.35373448
0.758225;0.28150882;-10.331.952;-0.43434974;-0.77989747;-0.93997414;0.17939833;11.367.613;0.74623301
11.877.639;0.080262142;-13.287.174;0.945175;-10.121.967;0.92411452;-0.7811986;15.226.253;0.67438727
10.675.134;12.225.798;-13.119.543;-14.777.884;-0.26553697;-0.4412614;-0.88910839;-0.65092445;0.78008234
0.061857385;-12.580.129;0.82244105;0.24259153;13.232.442;10.198.771;13.115.386;-10.616.523;0.58315783
-0.23009629;-0.50356893;-0.24095402;-0.55148062;0.43135884;0.54480113;-15.267.841;1.056.882;0.81275524
0.072218154;-0.03242855;-0.2013204;-10.364.446;-0.94778863;-12.700.152;-0.13171983;0.45165448;0.56133928
11.157.545;-15.311.057;-0.096671415;0.60632584;1.532.799;-11.645.041;10.076.712;0.86903258;11.400.137
0.31892867;-0.5079079;-0.55307236;-0.80813149;0.69264385;0.30158112;-0.39637554;0.56624547;11.121.948
0.67712418;-0.70076249;0.48554436;-1.160.987;-14.772.483;12.849.384;14.342.832;10.033.912;0.65487106
-15.640.903;0.11568562;-13.136.701;-0.27686392;-0.10471603;0.65150316;0.5573383;-0.073031357;10.768.147
11.809.388;-0.31766621;0.25984802;-0.55322813;-0.67037191;13.632.518;-10.444.591;0.92471415;0.60018004
-0.54344233;-14.501.276;0.45193733;10.091.097;-11.893.696;0.53735183;0.99527806;0.21181306;0.20315809
-10.253.375;0.18068145;-0.66025438;-13.518.206;0.21929842;-0.80669892;-13.424.655;0.51766809;0.42800666
-12.112.907;-12.069.807;-0.79009976;-0.051490107;0.66040332;0.92509037;0.10049762;13.775.325;13.042.058
-0.6427128;-0.46093623;0.3054417;-14.562.569;0.1516873;0.25175907;-11.134.166;-13.494.255;0.80872043
-12.785.469;0.21220311;0.19622555;0.83931447;-15.647.954;-0.41062678;12.746.942;-0.63659799;0.11150369
-0.044781369;0.79001292;-0.70948213;0.60727742;-12.435.005;0.67480288;12.658.474;0.9621052;0.49782285
13.417.761;13.765.526;12.195.046;-0.52296456;15.031.454;0.2624531;0.23256597;0.32467481;0.74926284
0.87912476;1.031.335;0.46255148;0.71085794;-1.323.471;0.25314039;0.59492791;-0.1369904;0.23699584
0.53956553;14.812.245;-13.390.748;-0.087437603;-11.007.921;0.81415874;-0.73600984;0.38973729;0.39999835
-13.000.922;0.95940514;0.54016616;0.70155996;-0.17426948;-1.211.575;14.744.489;0.094013799;0.49190113
-0.87210826;-10.729.056;-0.63017542;0.72107615;-0.98283249;0.8623557;0.18040868;-0.13118229;0.59734099
11.477.541;0.41815715;-10.495.241;-11.376.403;0.028514607;14.452.666;0.49183544;0.61721298;0.85632504
0.92385271;0.22450706;0.69131939;-0.58794426;-14.186.684;-0.19896485;0.74790885;-0.040315169;0.4120028
14.416.396;0.23731244;13.952.904;-12.702.965;11.292.495;-13.477.008;0.59189842;10.069.701;0.57789745
-14.676.134;-13.124.386;-13.430.827;0.39109121;0.93579487;0.076296979;-13.872.601;0.38713881;12.284.387
-15.352.221;-10.339.874;-0.84779613;0.85818151;10.916.202;0.55352458;12.203.614;0.40365013;0.85966451
-0.57732482;10.635.458;13.547.312;0.40484942;-0.039928169;0.83178378;-0.84472492;14.491.289;0.64853316
12.815.063;-0.64715219;-12.956.633;-0.38542969;12.280.997;-0.2972696;-0.43460368;-1.258.468;12.293.144
-0.48300146;-0.4930564;13.071.376;0.047316721;0.40748186;-10.778.615;-0.18116342;12.713.735;0.69723909
0.069816081;0.72258611;-0.094968144;0.42919059;-0.12434644;-11.952.988;-0.61032945;-11.383.477;0.87304503
-15.567.822;-0.89246472;-0.20052833;0.30945714;-0.73145361;10.984.996;-0.50712625;0.090287429;0.74732362
14.871.343;145.031;0.64928958;-14.311.984;-0.48882489;-0.65655815;-0.13003492;0.0715735;0.40956186
-0.24432338;-0.25700447;-12.828.331;1.023.581;-0.41518661;-1.499.427;10.515.467;-0.29416515;0.6216163
-0.28142479;0.2158397;0.17391942;-0.035664219;-0.56414814;0.98732928;-12.548.805;0.83309262;0.86126301
13.321.041;-0.92163869;13.825.314;0.63567247;-0.31120703;0.1507745;-12.655.988;-0.29078302;0.42946711
-14.576.831;12.118.707;0.9851995;-0.80942213;0.29525495;-11.982.523;0.80518454;11.279.913;0.70752936
-11.405.213;0.96526068;-10.869.027;-0.86155886;-13.664.153;-14.169.611;-12.445.195;-13.610.487;0.92653784
12.560.686;-0.048286174;0.78690847;-0.61924945;-0.29920282;15.483.021;0.084653107;-1.209.224;0.32386087
-0.75793752;-10.148.139;-0.53442612;0.37096116;0.98805523;0.5017482;-0.37669997;-0.46523839;13.404.791
0.50236053;-0.27049469;-0.28641887;-13.171.999;-0.21453508;0.8472428;-0.8872189;0.16243556;0.84474212
-14.276.612;-0.31971642;-0.92207137;0.62445763;0.85728937;-12.297.909;-14.893.161;0.010470871;0.77001571
0.78222734;-13.503.806;0.22300379;-0.80167408;11.184.909;-0.55759894;127.485;0.054732494;0.9574731
-0.67036373;-0.98207749;0.10474652;0.55454663;-0.81350001;-0.19456273;0.74193787;-0.59761658;0.50142254
-10.520.005;0.15150809;11.828.443;-0.84024884;-0.28347018;0.38211455;0.76856774;-0.47018325;0.4702652
-0.089764062;-14.350.934;0.065050973;-0.60319978;15.127.186;0.7837829;-0.91106523;-12.644.276;10.171.352
-0.70011018;15.337.555;0.037465551;-0.059131843;-0.64819666;0.34119689;-0.15074612;-15.022.855;0.65946995
-14.873.223;10.609.403;13.649.805;-10.856.059;0.80200429;10.894.752;-14.662.983;0.068122877;0.76958757
0.22765736;-0.45595271;13.170.996;0.59241876;-1.287.993;-15.335.342;-14.225.185;1.401.476;0.51167418
-0.22256451;-0.85275873;0.83066999;10.749.002;14.163.809;-0.48388138;-0.74888859;-10.546.143;0.71883711
0.9950581;-0.37032628;-0.16727643;-14.508.925;1.265.776;0.98905628;-13.504.194;-0.036941709;0.88820113
12.437.542;-0.57881438;0.31047621;-0.10761222;-0.96761216;0.9022223;1.508.764;11.560.418;0.46986743
-0.38130644;13.791.263;-0.011747201;0.91886771;13.675.944;-0.81750205;-11.385.517;-11.563.182;0.99317367
0.23165452;0.3056822;0.48513452;-0.65992271;12.664.655;15.693.206;-0.19750235;-0.34758227;0.58802286
0.98414046;10.966.808;12.229.366;-14.989.343;11.951.941;-1.240.212;12.414.566;15.471.869;0.49442289
-0.036608272;0.18970321;-15.447.578;-0.15726949;0.28357921;0.22490179;-12.967.388;0.60803924;0.97318576
0.47693325;-0.37470426;-0.62318976;-11.489.036;0.31979481;0.58838569;-10.616.032;-0.28532066;1.008.544
-15.273.393;12.388.003;0.11961892;-13.944.772;-0.47370346;-0.73537289;-12.607.176;-13.139.681;0.44983309
-0.037611922;11.828.752;-0.18407238;-0.6976072;-0.73832886;-0.38662686;11.613.215;15.348.043;0.69524526
-0.68344194;0.58539124;0.76421417;-0.26049629;0.19780503;-12.240.166;-0.38395169;-0.16112078;0.80435469
-0.94593572;-0.79753687;13.167.634;12.189.806;0.70410484;-0.89899878;-0.24469023;0.095962941;0.5564501
12.587.816;0.97364362;1.463.997;10.805.648;-0.48943754;-15.534.979;-0.16393854;1.212.126;0.56899176
0.857486;-0.52782617;0.44451154;-0.49432649;-12.871.369;0.13689922;-0.13834063;-10.269.799;0.54958645
12.817.708;0.68315762;0.19808086;13.672.686;0.097056707;12.194.049;-0.31237217;-0.5407341;0.32106615
0.82093077;-0.69110477;-0.94327474;-10.663.946;0.74548399;-12.115.462;-0.43769109;0.50956275;0.42240151
-0.49151423;-0.9297839;-11.420.549;-0.10756541;0.67790943;13.472.411;13.358.921;0.2396156;0.56865364
15.090.503;-0.59607374;0.61501345;-14.361.538;-0.93282893;-1.518.135;-0.62359398;-0.30241901;0.31834045
0.53131279;0.32754193;0.69120573;-0.58018756;-15.084.899;0.72013638;-0.39085356;0.3405464;0.40712945
13.677.143;0.92686287;-0.51499248;0.29134105;-0.53722618;-1.224.388;-0.0055239297;-0.41854759;0.74940826
0.14156941;-13.736.481;-0.39090365;-1.173.982;-0.22309361;-0.85773306;14.070.938;-0.50344127;11.188.766
11.715.036;0.66072284;-0.8474902;12.283.146;15.273.111;0.8491911;-0.88439821;-10.284.136;0.96083044
10.995.673;-0.76122153;0.21323461;0.87793042;-0.43672558;0.099404287;-1.205.838;0.49548017;0.91451159
-15.616.402;-12.849.647;-0.72308763;-0.68404395;-12.863.645;-0.6394476;-0.10481461;-0.82696381;0.61308309
15.191.565;-10.937.789;-12.533.313;15.024.315;0.51278616;0.19265982;0.81440795;-0.37478361;0.99157976
0.73941664;14.587.369;-0.36015679;-0.75607868;10.083.642;-0.94836693;-0.1647518;-0.094886626;0.9414879
-0.76505811;0.0013193319;0.69384425;0.32794616;-13.147.265;12.382.068;-1.240.399;11.695.478;0.73325504
0.20712679;0.18286332;-0.15167539;14.376.304;13.552.109;0.63235423;0.22328318;-0.35549007;0.67215736
0.29533083;0.90624901;-13.766.324;0.26506858;0.48365953;-0.03044751;-14.828.614;0.58757272;0.92800682
-0.091098468;0.8859886;0.76953869;0.2291589;15.655.688;0.34830329;-0.19748225;13.089.805;0.83979281
-1.136.333;-0.33882046;-0.30014164;-0.11891321;-14.658.892;114.636;-15.622.578;-0.53770332;0.65567727
-0.60643834;11.519.483;0.91733841;-0.52142658;-0.83085891;-0.51491577;0.5639783;11.823.023;0.59933649
-10.825.799;-0.83971506;-1.230.019;14.269.288;0.13371896;0.8984033;0.59821831;0.38069013;0.89282018
1.183.504;-10.567.981;-12.497.017;-0.52564264;11.758.577;0.97003001;11.586.634;-11.652.205;0.56645382
-14.135.208;0.95967907;0.95210961;-0.31734795;-11.195.328;15.700.422;-10.774.512;0.82783893;0.61974158
-0.31964658;0.38941783;-11.668.392;0.75733738;-0.99010259;14.622.602;-0.58143685;-0.62495529;0.65114756
-0.17665841;10.080.045;-12.452.768;-11.640.405;0.36198137;-0.47297406;12.856.299;-12.793.837;0.83812569
-0.29283534;-10.780.903;-0.077237432;-13.318.125;-14.441.661;-10.456.125;-0.29293484;-15.409.981;0.4382793
11.922.097;12.423.155;-0.65175454;0.075649281;-0.1548216;0.4600628;-0.48011761;-0.26601979;0.86918643
0.39126405;0.57148324;0.69495641;-0.90756115;-0.84786191;0.81600785;14.148.001;-0.50822819;0.65899645
0.62147577;10.700.049;-0.30915712;-0.9478457;0.24923866;-15.496.422;-0.1689314;0.19916426;0.62381107
-0.65224007;10.958.946;0.19049216;0.57367439;12.112.318;-10.334.925;0.76972988;15.575.981;0.90160426
-118.215;-0.45707277;0.31876293;0.19759897;-0.34689999;-0.042721377;-0.22842473;-0.34049928;0.93224179
-0.96274858;-0.82794988;10.331.273;0.38253216;0.44779997;14.065.425;-0.1082897;12.103.804;0.32947853
14.283.154;-12.397.182;0.18838463;15.194.993;-10.818.347;-0.72478983;-10.429.131;1.051.546;0.91520114
0.78706694;-0.90187121;-0.54496661;0.21818293;11.427.217;15.536.415;-12.944.974;-12.668.299;0.79673162
-10.126.526;0.43506344;-15.111.978;0.76187526;11.675.016;-0.86618621;-1.089.117;-10.374.093;11.049.122
14.974.561;-15.163.783;10.751.459;-0.29414435;-0.18861985;0.14866536;1.271.229;0.10088161;0.6023944
0.44551459;-11.710.099;-0.46376714;11.827.235;-0.26680236;10.524.911;-0.42565706;-0.94281387;0.4344347
1.348.449;0.91380168;-0.24294327;11.774.321;-10.944.949;-10.904.371;-0.61178721;0.32065777;10.629.879
-0.066601605;-0.98158422;0.92297789;0.20964605;-11.510.167;10.757.893;0.12509468;14.637.564;0.49264091
-0.96619168;-0.98293613;-0.69510001;-13.457.304;0.7902985;0.9250812;0.740731;-0.45896792;10.322.213
0.10891452;14.281.734;10.371.902;-13.659.392;-0.10682993;0.097769034;-0.66570543;-12.639.143;0.74189134
-10.221.141;1.541.728;-0.64255948;14.185.535;15.004.137;0.15119322;-12.996.734;0.84114296;0.98220079
-0.44278796;-0.03396143;1.298.395;0.082144527;-0.11165002;-0.44402165;-0.11765636;-0.07722433;0.68244345
0.49578357;0.9801027;0.62280616;14.438.975;-0.97109275;-13.893.217;-13.886.484;-0.43155101;0.98970061
11.308.175;12.158.107;-0.28365685;-1.217.955;-0.58202725;11.289.916;-0.12236925;0.85967203;0.73901935
-0.98512248;12.120.789;15.169.517;0.44847181;0.78747976;-0.25833064;10.832.171;0.32313734;0.27137363
-0.76021963;13.225.832;1.383.456;0.78501466;-0.35745944;-0.081956787;0.10045511;-0.84440656;0.22909359
-0.15397129;-12.531.514;0.81860004;-0.94772113;-10.956.545;-14.301.328;13.137.685;-1.367.084;0.6627797
0.87686891;-0.47766348;11.766.381;-0.47428813;13.512.091;0.083732512;13.941.618;10.283.293;0.39960611
0.32457511;-13.208.124;-0.56992574;-11.400.969;-0.80251148;-0.14118241;-14.618.143;12.300.828;0.71827806
13.289.556;-0.39986732;-0.025841562;-10.349.851;-0.95317699;-0.95032485;-14.583.434;-0.8201567;0.49394927
-0.96680161;-0.70330804;-0.77934777;0.0033145854;-10.647.539;-0.25274797;0.328363;0.93487977;0.85179916
-0.71750015;13.149.138;-1.198.261;-0.84043049;-0.80708583;-0.50193337;-0.98142462;14.193.892;0.86344181
15.491.277;-13.489.208;-15.631.078;-0.5146323;0.70548522;-0.81795522;-14.421.074;15.613.223;0.67640608
-13.305.646;15.630.195;-11.553.925;-0.62050783;0.71944002;0.23610911;-0.11242962;-0.57900496;11.540.587
-0.94354645;-0.32842432;-0.49738862;12.125.877;-0.36162892;0.45425911;-15.073.736;13.176.869;10.998.737
0.57456246;-0.049175148;0.16745193;0.44937869;10.844.953;0.66266276;-0.62428999;12.772.606;0.84161362
-0.5846164;-0.24784261;-0.50238396;0.31891774;-0.40801397;0.42701487;0.47765897;0.41642232;0.67155348
12.539.091;0.26107367;10.339.208;0.49335897;0.6059988;14.413.325;1.245.059;-0.65848261;0.30477095
0.64629093;-0.93970627;0.95777729;12.211.559;-0.021527442;-0.34625379;-0.44184474;0.71369374;0.66106472
-14.158.084;-0.85704436;-0.15785318;-0.057408147;-0.52855475;-12.578.351;0.64048347;0.44987941;10.976.437
-10.696.559;-0.14230692;-15.341.982;-0.38977445;10.042.839;-0.6581778;15.092.007;-0.69027897;10.776.854
-15.131.488;-10.004.334;0.9237315;-0.71850572;-0.77814108;-0.4465138;-0.083200854;0.38308565;0.79751522
-0.29897022;-0.48012553;-0.5955136;0.35649403;0.23316008;0.70748913;-0.34801824;1.397.239;10.795.198
-13.857.797;12.817.093;0.31712907;0.57791662;11.553.576;-0.15832177;0.50290034;-0.0094863969;0.71686683
0.9691447;-0.21306204;-12.944.666;-0.75985075;-0.089607721;0.01500861;13.617.556;0.78335284;0.86713013
-0.74296351;0.48193159;-0.57113709;-0.23747794;-12.140.865;0.92229289;0.52359156;-0.60370797;0.63932965
0.84305398;0.79836052;-15.355.239;-14.690.202;-0.50751897;0.35840709;0.40239176;0.8244977;0.6706109
0.62529067;0.30308265;0.6340734;-0.046159601;-0.44722692;13.148.784;-0.85068973;-0.23229577;0.57841624
0.63282866;13.884.422;0.58933549;0.16896807;12.883.798;11.981.273;-0.15405317;0.80469795;0.89571577
-14.814.282;-0.20281776;-0.48000572;-0.15340093;-11.981.034;-0.6840206;-0.49930486;0.0021164146;0.87439304
-1.241.589;-0.13002773;0.15381356;10.381.243;10.844.242;-12.466.993;-0.62274125;10.130.603;0.79551682
-0.92828562;11.724.423;-0.38632425;-0.65005475;15.384.901;11.482.742;13.745.446;-0.9279004;0.6147861
-0.5473258;11.682.434;0.72034006;0.98905651;-10.456.322;0.24046185;-13.014.877;-0.35606977;0.72912889
-0.32148909;-0.28740348;-0.94269589;0.90600874;0.12835602;13.540.821;0.8060303;0.26932762;0.60453316
0.27222359;13.791.493;-0.83811955;-0.010680191;-0.99449149;0.3613382;0.40364657;-0.44573399;0.51738615
11.029.064;0.69229234;0.62616697;-0.43118395;-11.456.388;0.31251217;13.893.818;12.473.843;0.47974888
115.083;-11.018.662;-0.3471175;0.74565258;0.069427123;-0.3508758;-0.1175207;0.93968843;10.596.886
-0.7865325;0.62351378;-0.066217222;0.36990062;13.307.832;-0.40012764;0.89145151;0.55725185;0.9645076
0.57014312;-0.95692191;-0.78904874;-0.29215657;14.744.551;12.045.982;0.37018051;0.64417374;10.035.037
0.53779343;-11.738.138;-0.87951722;0.033911723;0.28392107;12.587.977;12.703.107;0.69980332;0.43542756
0.33207651;0.91347052;-0.85243017;13.260.639;-0.21788778;11.282.901;-0.15092282;-0.52850963;0.6119126
-14.003.025;-0.26426708;-11.313.842;0.69752751;10.570.618;0.51898773;-12.945.029;-13.788.654;12.569.511
-12.129.506;0.67526701;0.88658917;-10.789.933;0.33132026;15.655.468;-11.814.913;0.93764243;0.79382667
-0.26572812;-13.615.481;0.33023572;-13.671.389;-15.441.214;13.072.141;0.68227447;0.72756429;0.97057124
12.522.895;-0.17880851;-0.92243208;0.10586437;0.64913954;11.897.164;0.17377299;10.944.717;10.505.653
-14.405.937;12.695.876;0.44370738;11.209.578;-0.66303323;-0.67355643;-10.784.571;0.76167735;0.92896577
0.19640241;0.26090587;-0.75109388;-0.19334021;-0.37033293;-1.304.515;1.361.277;-0.47888891;0.79202232
-0.87864666;-0.61844493;-0.71560017;-1.062.072;-0.69051432;0.19180847;-12.374.138;0.07454391;0.85558129
12.126.621;13.261.598;-10.754.363;0.28460437;-0.43096993;0.45086585;0.13030152;-0.63596992;0.66539653
-14.405.747;-0.83249292;-12.748.679;-12.998.915;12.011.029;0.18082706;0.28764367;-10.482.399;13.683.618
0.51571721;0.94520978;-10.432.794;-0.64155764;-0.93765544;1.240.288;-0.48395578;0.28397773;0.46353604
0.0049407739;-0.89325074;-11.679.631;-0.7131877;-0.94616966;10.539.556;-0.26147656;0.73440155;0.77549489
13.581.787;0.8061157;-12.843.703;-13.697.014;0.46855108;15.321.098;0.45158361;-0.23076319;0.68042396
0.096491264;-13.025.416;-0.52789084;10.193.885;-10.347.434;-14.649.253;-0.32204826;14.300.418;10.481.982
0.66686637;-11.990.649;-0.40377157;-13.840.123;0.92398054;-0.3381017;0.29898698;15.291.716;0.72307453
-11.795.878;0.63240809;-0.34867257;-0.74226873;0.44850666;0.66581695;-14.741.413;-0.58276624;12.056.888
1.259.001;0.87480638;-10.695.165;-0.046038093;13.707.079;0.032417101;-12.930.399;0.93366764;0.78943
14.036.388;0.21724816;0.82900942;-0.93043101;0.18844012;13.386.858;14.170.584;-0.10320141;0.42752289
0.73730904;0.75916682;0.19790637;10.942.681;0.38770208;-0.79500485;0.086578838;-0.34698422;0.9105262
15.116.248;13.089.583;-0.73425426;0.48035402;0.44575566;-0.45299212;0.57313832;-0.96788552;0.8668005
-0.18148091;-0.91069212;-0.4354083;-0.58311549;-0.88305019;-1.359.544;0.61261985;-0.085213762;0.77199006
0.33682943;-0.16307263;-11.379.602;13.471.108;-0.54087988;-10.533.248;13.027.449;0.37855646;0.53117149
-0.057671102;-12.929.547;0.31881775;-0.56721844;12.009.854;-0.35500701;1.474.684;0.67334198;0.92898099
14.739.239;-0.29343255;-11.871.068;14.934.458;0.22810467;-0.71841685;0.98994021;0.84183599;0.91115691
0.78064542;0.57967968;0.55134881;-0.98247576;10.121.258;-12.914.469;0.050375791;-0.99574735;0.78115065
10.167.042;0.59757476;-11.788.187;-0.25911551;-0.92534717;-0.084670689;-15.640.957;-0.26169765;0.73452946
0.62421476;-0.23269287;-15.225.277;-0.70689927;-14.261.902;0.08121023;1.091.097;-0.12267238;0.74703668
13.996.074;0.41384251;-0.851632;0.64735001;0.37357841;14.491.307;0.59042797;-0.86989266;0.4861409
-10.444.429;-0.03503903;-0.2828451;0.67620278;-13.114.554;-12.274.143;-0.96830909;0.68622593;1.166.004
12.684.672;-14.231.587;-0.54798121;-1.342.145;-0.21692423;-14.548.176;-0.92095116;0.61254395;0.59512895
0.27974002;10.583.411;12.293.938;-0.79495426;15.435.738;-0.10312397;0.20085036;0.026985545;0.78680384
-13.737.421;-0.15885589;0.16637469;0.397383;-0.426514;0.95459178;-15.200.313;11.567.128;0.90623346
-0.91984485;0.46280431;0.24202036;-0.20990736;0.69357139;-0.28964415;0.26614945;0.69666395;0.97043706
-0.054906663;-0.2313489;-0.72628362;0.095472203;15.455.672;14.194.239;-0.45419524;0.11510796;0.9799395
0.81194791;10.106.939;-15.613.638;-0.75253565;-14.822.876;-0.99735546;0.4108172;-0.60166126;0.27905466
-0.66991697;0.14081439;-0.11730636;0.18533496;0.022217101;0.98513527;-0.61604346;0.66603632;0.95797501
0.17354334;10.481.167;13.521.635;-15.351.769;-0.44671568;0.97518608;0.84690006;0.57785682;0.61824053
1.344.872;0.78736728;-0.46900599;0.18266752;0.45608851;0.2635555;-0.70693443;13.766.883;0.67294274
-0.49606228;0.89369223;-0.32762857;0.75695929;-0.0065457121;-0.068436739;0.056444287;0.17040783;0.72838423
0.46812513;0.33088945;0.75849988;-12.353.845;-0.058040551;-0.39336528;-0.10185174;-1.088.119;0.65359542
12.310.838;0.63992858;-0.47542533;-0.32106793;15.477.677;-13.793.571;0.34580666;-0.80467401;10.698.007
0.2953959;-15.335.387;-14.034.508;10.674.166;0.94516736;-1.043.296;0.02619361;0.40030334;13.147.557
10.025.676;-0.55916758;-0.71961036;-15.650.819;15.354.342;-14.468.072;0.41303841;-13.932.604;0.96606051
-13.488.479;-14.259.089;0.64040347;0.22404784;10.003.691;-0.56197778;-0.98313193;0.90373642;0.8573905
-0.3540536;-11.822.136;0.1647199;-11.975.182;-0.59982087;-15.330.717;12.790.312;-0.50249862;0.78150234
-0.40236831;11.092.243;0.70429827;14.951.666;0.18142903;10.063.444;-12.418.089;-0.89332732;0.44774363
12.447.252;0.52228762;-0.3801513;-0.33483539;-12.087.184;-0.70442492;-14.813.474;-0.48102758;0.83765157
0.23131368;0.47814957;0.79659578;-0.9859072;-13.921.907;1.393.077;0.11614429;-13.126.239;0.58827808
15.388.374;0.065890551;-10.826.428;-13.826.788;0.033002739;-0.84543587;11.080.918;-10.062.243;0.88052548
-1.491.506;-15.597.193;0.1270384;-0.32173261;-13.848.621;0.18297123;0.33702289;-0.41815995;0.56538113
-0.97321628;-0.75294907;-11.486.246;-0.6790781;0.68287902;-0.42178703;0.052156059;-0.27149332;14.395.848
14.269.004;-0.47976682;0.15321314;0.14043089;0.90980489;-15.416.663;0.082525228;-13.956.589;0.85877384
-10.038.895;10.273.703;-10.527.496;0.88582447;0.95930275;10.703.884;15.591.543;14.325.395;0.54648606
11.230.183;0.81966831;-0.11268738;0.044228674;0.34787365;12.579.164;0.68195349;-0.47524028;0.37232983
-0.11955029;0.2815384;0.44351121;-12.061.403;0.20856089;-11.179.611;10.623.896;-14.348.529;0.7998096
13.375.593;0.57734286;-0.90643207;10.970.192;-0.73458909;0.29277848;-12.305.339;-0.70689018;0.50306144
-0.87796198;-0.97822239;-0.82100031;-0.40617744;0.22024399;0.99389723;-0.47880475;0.80011068;11.841.933
0.15377042;-10.293.086;-0.67726596;0.056677832;0.84454118;0.5826767;14.888.771;14.436.239;0.90963881
-11.112.306;11.605.864;-0.81883354;0.68174022;0.48801137;0.70293857;0.7720522;0.46699395;0.64035891
0.31630666;-0.17305013;11.821.248;0.61947878;-0.69134661;-12.414.387;11.035.897;10.688.573;0.51570105
0.59129895;0.66131756;0.54026562;0.3417703;12.886.841;-15.435.369;0.068899997;0.65765152;0.73430713
11.038.889;-0.19058816;10.415.618;13.021.426;0.77347136;10.477.604;-12.454.375;10.260.726;0.50329092
-11.848.375;12.092.659;0.57559486;0.77641817;-0.1771695;1.082.349;0.36386224;10.008.809;0.38167338
0.99217326;11.694.914;10.590.952;-0.91573895;0.54198849;12.180.162;-12.482.963;-142.331;0.65126612
-0.11780171;-13.032.553;-0.050565587;-0.16214924;-14.181.158;0.58028391;-0.55964694;-14.842.033;0.45816899
-0.68992341;-0.62859923;15.157.859;-14.813.631;0.99132713;13.280.008;-0.057639795;-0.75932136;0.56833734
0.075736554;0.30883989;0.6381672;-0.147382;13.692.076;-1.307.044;-11.415.013;-0.76481344;0.68284879
0.55924127;0.76092033;0.27887918;-14.743.392;0.10593386;-14.729.658;0.49371203;11.776.803;0.28716158
-0.47714949;-0.63573906;-0.13381026;-14.783.253;-0.85256769;-0.3867782;0.87186094;12.392.336;0.64823342
10.345.655;-0.30969179;0.43134218;0.64241748;-0.3010927;-0.62592729;0.97865918;-0.9603107;0.37765215
-0.77340399;0.62919057;-12.278.867;-0.54343894;0.64080161;12.338.039;-10.543.515;15.610.818;10.329.549
13.095.605;0.20504607;0.029601785;-0.96844255;0.57305689;-11.116.971;12.381.988;-14.793.127;0.7664671
-0.2140982;-0.11776333;11.455.659;-0.022380855;-0.75593186;-124.178;0.49810777;-0.24366219;0.72283598
-12.248.464;-0.044925709;-12.959.874;0.83608374;-0.34604407;-0.99597021;-0.64721523;14.063.309;11.542.768
0.86370752;-10.841.509;-0.99808633;-0.28453047;-0.87472054;-0.86567964;-15.525.462;-11.392.532;0.82818681
-0.96744108;-0.086616323;12.678.316;-0.5996263;12.255.817;-0.76220688;0.42467241;0.57880794;0.74508677
11.013.347;-12.031.378;-0.97658297;0.30994251;-10.718.061;10.038.394;-0.22939611;-14.874.332;0.73981238
-0.13123972;12.951.261;13.915.694;0.44320339;0.04669246;11.769.523;-0.72629443;1.504.011;0.56421454
-0.34796007;-0.91058181;-10.506.817;0.20327322;-0.63798258;15.694.326;1.398.529;0.6580738;1.013.822
14.806.129;-14.505.889;0.084235552;15.018.412;-0.31750992;0.64108256;-0.31916744;-13.012.965;0.31822336
0.10557566;-12.881.534;-11.113.591;-12.511.062;11.766.281;-0.98819351;-15.485.664;0.87836188;0.59611664
-0.58967237;-12.794.651;12.970.722;-0.66240864;-0.73647986;10.320.658;13.390.594;0.28419421;0.21801824
11.013.834;0.23142811;0.38089652;0.7023232;-0.14200786;11.962.169;-0.79850454;12.313.306;0.65689447
0.68616388;0.32060811;-0.83804191;0.982373;0.88427461;-13.756.926;0.41799219;13.024.615;0.82922925
-0.43037404;0.62911709;-12.105.796;-14.680.415;-0.87151538;0.85616347;0.59361521;-0.1470386;0.88778839
-1.350.162;-10.299.722;-12.568.701;0.69601081;-14.539.885;10.450.491;-0.80735763;11.557.071;0.69921153
-0.44848883;-0.56732031;-0.1464884;-1.437.344;12.651.161;-0.50479918;-0.72098994;-0.49837929;0.78403967
-107.094;-0.21876215;0.97810083;14.061.482;0.50719771;12.819.865;-0.55497568;-0.77463752;0.19728111
-11.035.451;-1.071.982;-10.136.963;-10.685.852;13.311.228;13.040.172;-0.087715391;-0.57291386;10.743.182
0.68071651;0.23277302;-0.33715107;0.7729543;0.89922775;0.866489;-0.82562463;0.018260609;0.9173519
-0.87801239;0.93336745;0.93510051;0.5573137;-0.88143632;-13.428.771;0.14164283;-0.97001764;0.6659223
-0.69353129;11.346.773;-11.537.992;-14.579.677;14.507.783;-0.53337834;-0.73617722;-13.622.306;11.774.014
-0.87158108;10.537.672;11.478.596;0.3590396;13.296.772;-15.259.861;-13.386.291;0.91713621;0.33355979
0.58331639;150.733;-0.44494902;-0.62086894;-14.061.926;0.7139917;-13.948.394;-14.868.042;0.48980569
-11.120.607;-0.107427;-12.676.677;14.265.052;0.32218967;-0.82539652;-0.50129419;-0.49089329;1.066.586
-10.693.658;0.89026857;0.5899441;-13.628.553;-10.639.747;0.83386852;0.50005722;-0.62125601;0.83908768
0.22096223;-0.66194336;0.32400996;-0.15660175;-0.27697643;0.18334119;0.70133014;12.041.708;0.71578328
0.34965672;-0.90252457;12.553.292;0.64897846;0.69753015;-0.48702534;-1,50E+02;0.35928095;0.51065055
-12.393.754;-11.211.012;-0.61836361;-0.22864588;-10.345.641;15.554.944;-0.25188423;0.29392066;0.75399791
-14.233.016;0.92432372;-0.44870062;-0.68355378;0.7967373;-11.389.496;14.486.806;1.340.897;10.390.647
-13.439.084;-0.066899866;-14.889.931;0.31603435;12.959.537;-0.60249547;0.63232963;-13.300.243;11.679.408
0.98306607;0.30411762;0.42070473;-0.84385551;0.43228421;-0.78818541;-0.44383318;-12.872.151;0.7183151
0.75561827;-0.06633739;-0.94074148;-15.303.313;-11.031.517;10.640.648;-13.633.371;-12.169.359;0.53518142
13.588.018;0.33287228;0.59382581;-0.058543064;1.009.022;-13.493.277;11.706.066;-12.729.074;0.75251621
11.445.355;-0.59216027;-0.40941691;-0.6147722;0.31483121;10.062.984;-14.092.268;0.49058019;0.89633938
0.23700426;0.12780622;-0.98203896;0.22188735;0.92606316;-14.774.485;-0.40712514;-1.499.416;10.271.676
-0.20895391;-0.81027127;0.79896452;0.19028592;0.89344133;-0.32870185;-0.16345579;11.722.255;0.72861327
0.41216001;0.57499738;10.297.222;-0.0059323296;-0.74440582;15.694.128;-14.494.443;0.66651983;0.52683513
-0.038542257;0.44194275;-0.49273085;0.82630172;-14.066.025;0.308171;-0.90174028;-0.72065822;0.60118478
-0.61162638;10.067.895;-0.089121541;-13.281.179;-0.28316506;-10.562.136;-0.50587072;-1.263.048;0.65523122
-0.3134725;0.49259774;0.67396122;-0.66104354;0.3576252;1.358.595;-10.194.099;-0.30641458;0.9008374
-0.081495085;0.99354361;-13.169.178;-14.872.059;0.73994639;0.81047253;10.242.022;-0.83945681;0.58018735
0.046496245;0.92257933;-0.91734424;-0.9578709;-12.864.189;-0.3339234;0.98105588;0.14199902;0.52575361
-0.79418132;-1.110.469;11.320.633;-14.155.104;-0.40186007;-13.661.454;15.279.745;-10.329.046;0.76283425
0.821718;0.55023789;1.103.467;0.79717718;0.36207917;10.949.893;12.884.765;0.41306488;0.37825413
0.17306293;-10.006.345;11.477.195;-0.73577813;0.19956627;0.034717848;0.42704096;-0.53832373;0.55843738
-0.446179;-0.7183228;0.34334741;-0.91431043;-11.106.489;-0.83335792;-12.617.709;0.17986737;0.43153158
0.051246755;0.28929288;-0.46586655;-12.856.483;0.66828549;-10.264.509;-0.83347163;0.81871097;0.22612403
0.50783188;-10.399.112;-0.97016432;-0.016495883;0.68048345;-10.754.212;0.20399827;-0.10050235;12.575.447
-0.57681634;-11.070.367;-0.68578166;-0.7861446;14.880.775;-10.214.224;11.213.859;10.337.784;12.221.563
0.40264667;-14.548.586;0.57100489;0.80636925;-0.10033652;-13.840.788;0.71874065;-14.345.881;0.56279258
0.29207299;-0.79242792;-0.68635344;-0.18264504;0.67942265;12.814.148;0.45028372;0.60139399;0.75635021
-14.385.821;-11.247.988;0.38599817;-0.37917598;-0.63284832;1.120.707;-0.17815914;11.253.017;0.88417017
-0.55271882;-15.312.259;0.082491587;14.807.894;11.509.508;-12.671.602;-0.38284071;0.55777905;10.520.974
0.14424025;0.61376724;0.99374557;-0.069194759;12.434.412;-0.30546275;-0.4219893;0.080031107;0.83092074
-10.636.885;-14.041.944;11.752.585;-0.56703312;0.64197462;-0.55003628;13.420.593;0.48115505;0.66967051
13.914.128;-0.65097071;13.765.828;14.664.448;14.382.086;12.474.127;-0.64531851;0.31339333;0.59378828
-0.54039351;13.024.911;15.389.883;0.74324204;0.55887394;14.175.911;-10.902.734;-12.491.431;0.16979257
-0.049436996;0.35046011;10.436.377;0.6965226;-0.36780163;-0.38526321;0.68565903;0.91622434;0.48420694
-15.071.244;-0.30323193;0.90627252;0.88105456;10.123.702;-0.29626986;0.50951117;-11.046.974;0.26659991
0.42223818;-0.75570936;12.810.076;1.557.781;0.040903579;0.016865675;-0.62735592;0.16320408;0.47532086
-0.30076818;0.25193863;0.56000273;-0.40787253;-0.54233245;0.71805417;-0.78606003;0.36062609;0.76578924
-0.18824006;-0.53432945;-0.24572617;-0.15852174;-12.211.262;1.479.056;-0.91378448;0.91049103;0.60039438
-0.16688801;1.338.283;1.274.638;-0.20430564;0.55729181;-0.92781845;12.706.813;-0.075075459;0.71697803
0.55540624;-12.817.752;0.32059007;-0.0040831587;1.315.824;10.213.088;-0.2067442;11.270.146;0.85723081
1.040.857;-0.89513513;0.32598071;0.48939012;13.839.125;-0.52583531;-0.14835646;1.072.599;0.74945924
12.953.053;0.55106432;-0.17982587;0.49026367;-0.93507444;-0.41384881;0.99746791;0.71313576;0.4002371
-10.414.394;0.32293052;-0.12126864;-0.5359803;-15.495.992;-0.070858316;0.9047402;0.49668142;0.62585485
14.827.034;-11.787.892;0.73164351;-12.748.183;-0.31074987;-0.25210669;0.66016318;0.51294344;0.6938259
0.68259312;-10.269.223;0.53880665;-0.20910727;-14.461.259;0.85136179;-0.74269487;0.51009917;0.58784842
-0.75386361;0.42761071;-14.882.173;0.97629435;14.644.921;-1.117.002;-0.92512284;-0.16952892;0.97434298
-0.14245799;-11.107.192;0.89229644;0.040647052;-0.6599854;0.70432396;-0.79749798;0.15191355;0.74209443
-0.3977954;-0.51433733;-11.369.904;14.294.023;0.58899574;0.051601061;-15.143.704;-0.90372174;11.688.268
-0.43808168;11.954.788;0.91117796;0.20589747;0.092885834;0.17946067;11.607.309;0.74925641;0.50047996
10.543.025;-12.149.245;-1.096.152;-15.163.568;-0.23934136;0.26653849;-0.88551943;12.490.869;0.73350849
10.794.746;11.164.168;-0.72667692;-0.80972469;-13.717.115;-0.19869268;-12.006.498;12.821.763;0.86450441
0.031939619;-11.155.335;12.532.758;0.33656223;-13.485.203;0.085044145;-0.87102075;13.525.975;0.61912373
-0.40316608;0.25338493;-0.57320034;-14.069.422;-1.130.626;-0.087709566;0.57602612;0.54125181;0.51273699
0.40297224;-1.359.167;14.864.974;0.28952979;10.619.535;-0.72771814;-11.176.277;-123.308;0.57177612
-0.51931503;-0.99970826;-15.247.911;-0.19984226;0.86512483;-0.53859873;-0.3866251;0.71058847;11.123.595
-0.78324556;-0.8591548;-11.921.158;-0.38631799;0.86228949;-13.004.293;-1.194.389;-1.474.819;11.106.323
-0.73482684;-10.549.651;11.873.612;0.82554896;0.33254535;-0.25532844;0.68133137;-0.11706359;0.32761932
-0.63406095;0.35019306;0.58391479;-14.133.207;0.19643535;0.11042135;0.031163019;-0.85081447;0.83381957
-0.38002411;14.917.696;-0.47963953;-0.099299669;-0.32499064;-0.82965358;-0.88911677;0.89088512;0.90983136
-0.20740472;-0.87944237;0.025164692;-0.74383603;11.118.591;15.420.034;11.707.765;0.27558116;0.59696427
13.167.906;0.40550344;-11.720.326;-12.550.099;0.82339893;14.531.213;14.456.742;0.98498494;0.69166327
-12.203.709;11.818.238;-0.56576537;-0.29756945;0.15025778;-0.13105697;0.36945981;-15.513.766;0.77961207
0.6854978;-13.769.467;0.78242265;0.16572143;-0.45796647;-0.41803792;-14.176.549;12.325.113;0.41029571
0.94129226;-13.723.521;-0.5294091;-13.126.691;-0.14049381;-13.621.885;-0.6867661;-0.84536341;0.56987225
-0.7615234;0.45170205;-0.78828319;13.759.661;1.198.147;-15.165.399;-0.266392;14.007.784;0.66740683
-0.075336765;-14.730.068;-0.57939708;0.59932466;-0.3519696;-0.74540026;-0.48073134;-0.21241015;11.590.186
-0.12316985;-10.757.625;10.105.265;0.90352103;0.065948844;0.7294164;0.52475362;-11.282.066;0.33605139
0.19383859;-0.47481464;0.46925521;-0.98088887;-0.57999057;0.80690679;10.834.833;0.88514175;0.74679095
0.013658654;-0.56425073;13.747.468;12.789.322;0.46047269;-0.57302948;14.320.972;11.362.394;0.2348438
0.22473207;11.062.775;-10.439.894;0.23655373;1.421.756;12.165.988;15.161.193;-0.96559757;0.49365343
0.87753607;12.604.145;-0.5352424;-14.977.362;0.49897565;-12.498.892;-0.041285552;0.66927042;0.58200113
-10.288.474;0.027185928;-14.392.991;11.289.146;13.729.316;0.94168875;0.40570932;15.261.662;118.692
-0.51305652;13.829.607;-0.036468028;-15.522.846;-0.13724339;-0.38089626;15.004.215;-0.82795782;0.91414081
0.7308242;-12.243.229;-0.30757674;-14.616.708;-0.72069317;0.84234469;0.01937551;-13.732.271;0.99882498
-0.66499379;0.23765415;-15.223.186;0.95342134;12.911.795;12.706.246;-10.814.474;14.537.276;12.177.849
12.359.741;12.890.127;-0.47800808;-11.116.207;-12.684.361;-11.592.302;1.368.154;0.63329945;0.24200197
0.80586716;0.01366743;-0.82937843;0.042904582;0.24269017;0.97515599;12.478.897;0.14798611;0.64189802
0.80346422;0.37223107;-0.11661258;-14.689.983;11.064.632;-0.24213077;0.0088759285;-0.93884357;0.9740084
12.579.646;11.765.876;0.44622917;0.32210844;12.399.292;-11.293.172;15.228.754;10.759.652;0.92715356
-0.30817959;-1.417.375;0.79207182;0.71243472;13.052.703;10.685.385;0.41111827;0.73917275;0.35599854
0.91183716;0.87597168;14.229.769;12.807.859;-0.06343037;-1.559.255;1.302.595;1.419.086;0.49834032
0.5581159;0.95280045;-0.97215858;-0.024752026;-10.743.232;0.76697813;-10.457.073;-0.39232836;0.46749291
-0.54171534;10.193.987;0.35408396;-13.170.715;-14.175.973;0.64679658;-11.324.789;0.34030454;0.31159978
-0.27420931;-12.124.178;0.91265239;-0.35965177;0.28091486;0.79952035;1.337.274;-1.341.746;0.24354668
0.080548871;-0.73528355;-14.481.273;-0.24299214;-0.47773337;0.94680151;0.61075599;-0.37361061;0.80876888
-0.24155085;11.149.174;-0.75640941;0.10156657;0.64604997;0.72618081;13.927.758;0.77024055;0.47610657
-0.80750695;-11.840.496;10.524.674;11.445.341;0.81768235;-0.1665554;0.37594478;-10.704.772;0.18135921
-0.08906851;-14.738.271;-1.489.095;0.21219571;14.609.859;-0.1375941;0.76107824;0.3905409;13.972.869
15.652.495;0.84528577;-12.920.195;0.66557677;0.10224944;-0.33186188;-11.232.595;10.337.716;0.78154796
-0.5477925;0.43594354;-0.28347086;-0.86260434;0.055154142;-1.275.587;-0.79179709;-15.494.352;0.70742089
12.595.582;0.70892459;15.013.101;0.65894437;0.20583774;-0.56189333;0.052721962;-0.69611021;0.59005484
13.434.367;-11.653.264;-0.75354588;0.76394337;0.62136241;-0.11364897;0.16888784;-0.23331138;12.072.699
0.51396655;-0.95159055;-10.856.829;-0.092992406;0.5840363;-0.0099309572;-15.018.157;-0.55675188;11.463.599
-11.440.585;0.46579469;-0.70259245;-15.518.162;15.627.262;-0.40518722;-14.606.273;14.756.335;0.5442533
14.973.731;-0.2375621;0.77550175;0.12660899;10.239.081;0.99131735;-0.3581374;12.402.916;0.67839758
-0.9497143;0.25804254;-0.60995099;10.591.275;-0.82113726;12.048.172;0.076314057;11.132.355;0.38196909
0.58401794;15.230.984;-0.42946338;0.49143606;0.16263913;-13.443.872;0.8405563;-1.177.177;0.8287742
12.540.822;1.017.854;13.888.673;0.3188448;0.29026979;-0.78088973;-0.51238187;0.93660805;0.54708942
0.41489603;11.009.123;0.65846581;-0.73243909;-0.32906493;11.604.326;-0.49666239;-0.94924179;0.57459474
-11.780.521;-0.94715979;-0.99607847;-13.437.279;-13.911.848;0.38397849;-0.19306313;-0.89929498;0.74105644
-12.042.868;-0.46453944;0.45648005;0.87458291;12.319.553;0.69520267;0.45318772;-0.24844682;0.43117774
0.83335303;-0.65655822;0.29090271;-0.39708507;-0.76369666;0.68824569;15.054.653;-0.46908186;0.40999148
0.94432946;-15.005.334;0.88371402;-10.660.324;10.978.697;0.0011113986;-0.031853431;15.386.719;0.43889159
0.019178791;12.411.685;-0.86857705;-0.30397678;13.231.266;-0.1702794;-12.898.679;-11.327.245;11.603.264
-12.461.042;0.14373891;0.80664989;-0.70806723;-15.455.064;0.10496847;13.210.975;0.35127971;0.48954518
-14.164.645;-0.064941369;13.924.601;-0.13297569;-0.63753213;-13.699.122;-10.905.718;0.90548597;0.37044618
0.46979392;-13.369.312;13.536.902;-1.250.054;0.97009222;0.61889069;-11.880.339;0.62791268;0.57947273
10.040.076;-11.319.897;0.057595435;13.134.032;-0.52600165;-0.11743358;0.67762516;0.71870307;0.60809648
0.86183774;0.13415757;0.3959417;1.536.973;-0.068000206;-0.78601874;0.57268214;-0.18133851;0.46775138
-0.97679193;-0.87721592;0.69899405;-14.119.739;0.66026445;-0.21978436;-0.77116766;-0.41138975;0.72391759
10.212.893;0.12631444;-15.635.923;0.54613615;0.95938308;0.59714934;11.963.602;0.41788256;0.78953152
-0.85242794;-0.74980258;0.12733753;-0.82349032;-14.437.307;-10.995.086;10.323.349;-12.489.789;0.71004814
-10.938.148;-10.038.165;0.737239;14.553.931;0.88022017;-0.5925033;-0.56416576;0.53290474;0.88641436
0.85435732;-0.79201406;0.33446037;0.35087738;0.10051045;0.64574524;-0.60728686;-0.15063573;0.77453432
-10.365.697;-0.45224712;0.96619651;0.42678024;-0.89771253;-11.624.488;0.36422918;0.38895832;0.83393573
-14.960.819;-14.047.274;-0.027629029;0.6393984;12.150.523;0.28737322;-13.641.843;-0.43184201;1.269.432
0.65839994;-0.18530007;0.59463004;-10.195.049;10.317.725;1.253.782;-0.50305644;-0.8896585;0.73142314
10.384.726;-10.199.112;0.5407905;-0.57303561;-0.59176481;-14.895.064;-0.84372236;14.906.938;0.31703088
-10.794.796;-11.176.106;0.43832546;1.113.652;0.4911731;12.184.018;0.70745399;-0.11020492;0.10046675
-0.1163477;-0.099249153;-0.098845559;-0.46046655;-0.95924621;0.77785886;-0.74890785;13.255.991;0.67175247
-13.851.123;0.10518679;0.60520968;-1.318.637;0.60239952;13.068.715;14.674.574;-0.83034138;0.45327272
-0.38120445;-0.84232279;-0.71789593;-15.373.239;-0.8243949;-14.263.152;-1.087.821;-0.59299466;0.63800059
-11.956.895;-0.90270078;11.804.992;-13.455.328;-11.814.761;1.414.386;10.615.935;-13.294.152;0.20425331
0.81489385;-0.94104455;14.916.334;-11.864.563;0.93884257;-0.84554002;10.979.745;-0.47363496;0.52683207
-14.230.913;-13.583.005;-0.027022361;-10.832.291;-10.928.566;-15.676.174;-0.057427837;0.41299437;0.62206953
-0.94982786;0.9979166;13.661.168;-0.30211985;12.511.504;-15.495.497;-0.72071903;1.418.212;0.43583696
-13.245.193;-0.97887796;15.653.569;-0.91459256;14.056.571;0.52130773;0.85659959;0.62499044;0.39398471
0.13024331;0.51879588;12.560.767;0.25563725;0.10128923;-0.28283009;-10.497.983;-12.714.508;0.61578314
-0.69070816;14.827.165;-0.62110939;-12.034.565;-0.37515141;-0.29571588;-0.77540512;-0.16037623;0.79279249
-0.54718978;0.90316546;0.52683673;-0.91946919;0.0066916601;-0.097280852;-0.90755452;0.043206664;0.78799094
-11.768.596;-0.67376106;15.368.022;-0.024402166;-0.63060369;-13.711.028;-0.83641622;0.46650698;0.62693868
-0.011485151;15.393.792;-11.404.771;14.214.292;11.773.569;-0.54226714;0.97974366;-0.83246755;0.99877025
-13.937.833;13.311.282;-11.426.199;129.003;-10.552.212;-0.1235507;14.646.667;13.715.284;0.49842317
15.399.689;0.99098742;0.54352613;14.032.451;-0.81157561;0.076196832;-0.86657175;14.117.629;0.7172072
-13.243.621;-11.986.575;-0.70774916;0.40425826;0.64406746;-11.296.458;-0.047778586;-0.95103507;12.968.801
-0.36925111;11.965.054;-10.703.488;-0.89636518;-10.865.106;-13.119.225;12.330.193;0.37707139;0.50227796
-13.578.622;0.3315691;-0.59354391;-12.727.449;10.944.868;13.566.485;14.096.738;0.84651868;0.88717329
-10.601.728;-0.50351873;-11.359.009;0.081419381;10.154.425;-0.48749683;-15.039.816;-0.83367348;12.664.289
0.78938859;0.81128342;0.37138886;-13.188.626;1.410.815;-0.085598793;-0.16404191;-0.046935196;0.94609355
0.30832219;0.72832816;-0.41202808;0.95440688;-11.741.437;0.19052136;12.660.389;-0.30009116;0.63034602
14.846.835;13.664.641;-0.88577091;-0.2556604;-14.904.467;0.80964766;0.30833977;-13.759.199;0.95944414
-0.59515429;11.190.897;0.85583731;0.81441219;11.215.241;15.104.618;-1.361.444;0.17837051;0.71611737
0.072846302;-0.17412065;-12.951.626;-0.093448735;-0.10004399;-0.87894753;-15.703.043;0.79368974;0.84684966
-0.89333665;15.185.282;0.29794094;0.20343182;-0.68721955;-0.70241113;0.41577256;0.34107535;0.85709691
-0.63777139;-0.39453554;-0.20524146;10.257.539;15.371.455;0.6813038;0.98733169;-0.95323469;0.23245408
0.090413227;0.9433324;-0.024445257;-12.146.241;14.872.334;-0.4323315;0.19126972;11.071.662;0.96871314
-0.95573572;-10.305.291;0.69721133;-0.11897857;14.204.065;0.30831922;0.82096579;0.48948467;0.63472085
-0.087007846;-0.50264336;-0.10970585;15.216.563;-0.19025009;14.348.943;0.097178638;-10.622.787;0.56077139
-15.002.912;-0.18430024;0.28871718;-12.286.552;0.6081236;14.028.327;-0.34680937;-0.046803211;10.342.999
-0.97095596;0.076266666;-12.910.576;-0.32013545;11.325.039;-0.24375538;-117.071;-12.233.963;12.851.845
-1.424.514;0.04405188;0.17498711;10.316.705;-0.91638924;-0.15982863;-0.32840437;0.10309189;0.88171713
0.27066795;-10.359.185;0.47764596;0.83702985;14.748.136;-0.1780174;0.28597385;-14.936.675;0.46940733
0.090116395;0.023546061;10.265.028;-0.091270733;0.026926683;-11.421.979;-0.27426284;0.39644247;0.71533296
0.33859534;-0.10203127;-11.939.383;-0.88998902;0.16741964;13.522.421;-0.81917289;-0.30946504;1.088.503
13.475.521;0.4699765;-11.681.597;-0.92281246;-10.451.724;0.85216607;-13.796.918;12.985.009;0.59147887
0.5659511;0.93105305;-14.471.092;0.33393354;-1.567.981;-0.16581115;-0.38513579;-0.73908656;0.35399707
-0.80246542;-0.064344625;0.64573234;15.365.106;-13.767.175;-0.19534159;-12.963.118;0.029620151;0.87695058
-0.1789978;-0.73224447;-13.791.118;0.24123705;-0.66148926;-0.14182346;-0.16739731;14.542.344;10.343.917
1.229.662;-12.143.785;-0.061309377;-13.250.407;0.44647197;0.84195578;14.203.986;-0.27373717;0.87710432
15.327.094;0.86863851;0.015682899;0.7917761;-14.104.636;10.174.332;-0.32267709;-140.896;0.45769511
-0.81283434;0.22631025;-0.31129134;-0.40552462;0.79637672;0.31181697;-0.84494763;0.9340568;0.99520124
14.797.193;-0.87235228;-11.217.583;-15.377.491;1.518.821;0.53133184;-10.360.286;0.15407142;13.133.337
0.79416274;0.18819107;-0.69350582;0.9339157;13.838.817;-14.537.521;13.153.651;0.80605556;10.705.313
-11.340.008;-0.65656405;-0.44349222;0.92422245;-14.519.479;-10.459.475;-0.046787544;0.82834239;12.240.479
0.89053204;15.429.807;12.255.502;13.725.903;10.033.144;111.274;-0.96009124;15.534.188;0.65319334
0.62463026;-0.97125698;15.402.752;0.40948731;-13.634.447;-0.079416975;-10.336.204;-14.661.113;0.45614122
-10.418.712;-0.20067464;0.68190537;-0.97626702;-0.63896684;0.4157759;0.94859209;-1.421.613;0.57956823
0.5079004;13.318.854;0.25354238;0.41869222;-11.520.301;10.435.382;-0.5954753;-12.367.698;0.38355147
0.57485111;11.496.079;12.870.865;-0.20745445;-0.53436879;-0.76571062;0.96082365;15.280.013;0.56563165
11.252.024;0.664391;-0.94465346;0.48094657;0.67720518;-13.349.002;0.77676529;-14.023.578;0.88799247
-11.113.028;11.992.389;0.81849301;-0.048895856;-0.20266894;-15.546.658;-13.649.074;-11.994.557;0.65268067
-0.89766492;-0.8500587;-0.62221536;13.046.177;-0.77040717;-0.6424184;-0.088965727;0.34789257;0.93488319
-11.263.724;10.268.115;0.78832259;15.343.158;14.115.559;0.52794896;0.15113348;0.52642504;0.61941854
0.29594024;0.85252934;12.415.321;10.535.763;-12.878.027;1.380.599;-14.479.934;0.90068878;0.54180445
0.72646479;-0.34341326;-0.028355653;14.403.585;14.738.372;-0.076117445;14.930.794;-14.586.064;0.22353621
14.647.317;-0.64092915;0.94862947;-10.082.451;-0.67693677;-0.67769441;-0.85687572;-0.94960509;0.42508483
0.22505361;0.42499349;0.032852236;0.17483215;-15.693.189;14.049.494;-0.44945518;-0.72198792;0.47986385
-0.0015406875;-11.161.687;-0.77278258;10.148.327;12.691.512;0.77465264;15.372.036;15.214.683;0.62768765
-0.7615942;-0.99728299;-0.81285328;0.58602305;-0.79046184;0.82697406;-0.67758102;-12.472.145;0.61541677
-12.652.128;-0.93845349;11.613.142;0.39648199;0.50320536;0.54711575;0.16914021;-12.275.357;0.35527249
1.008.685;13.488.755;-0.50757645;0.35480908;0.20508862;-0.067354344;-0.40188397;-0.35330398;0.96321989
0.93537288;0.81789234;-14.133.589;0.5332789;0.59723431;-10.510.995;-0.039701318;-0.36983137;0.95794219
0.28231414;-12.929.189;-0.74060928;-0.14535777;0.32854432;-0.65366912;-12.424.123;14.559.947;0.49727774
10.488.116;0.30848827;-0.43007932;11.311.071;-10.754.505;-0.067428579;0.94216207;10.380.052;0.34780637
-0.099069359;11.344.583;0.46149727;0.73937491;-15.134.136;0.84281244;12.909.311;0.48954451;0.35994579
-0.014606512;0.51555612;-0.2076915;-14.664.836;15.340.186;-0.29257234;0.83936462;-0.05665958;10.951.096
-0.44742276;0.43922977;-0.36160565;-13.951.488;-0.79988131;-0.67084932;1.450.178;-0.37498951;0.91700504
11.384.017;-0.60799478;14.756.295;0.58237319;-0.73013024;0.21152682;0.66598099;-0.41387764;0.38260758
0.81781859;10.326.014;11.726.274;-12.565.147;-0.23803925;-11.516.801;-0.35208269;-0.55539953;0.46805444
0.60910683;0.77359855;11.383.903;-0.45696008;-14.782.772;-0.93446105;13.068.722;-0.92814896;0.30261404
-11.919.026;-11.811.946;0.62657884;10.659.333;14.518.794;-0.665134;-14.145.133;-13.920.008;10.133.572
-15.117.632;-0.61340889;0.29206931;-13.615.891;0.9867091;-11.204.447;-12.932.323;0.082615689;0.44299884
0.99810186;11.438.561;-15.003.945;-0.86683392;-0.84775103;-0.60809411;13.239.014;-0.062060289;0.47539722
-10.067.641;13.845.576;0.43374318;-13.125.679;-10.288.115;-0.63687386;-10.898.964;-0.038515423;0.51204713
-0.06568907;0.48354909;14.267.012;-0.06497463;0.091495127;-0.53272255;0.73839042;-0.1606222;0.64127661
-13.371.851;-0.29072051;-12.095.578;12.456.454;15.197.876;0.071116369;0.83675328;-0.94918034;0.91014799
0.88449389;-0.96301209;0.20755121;-0.010916208;-12.189.755;14.476.091;15.437.415;0.13346847;0.60102153
-0.32762466;0.14110248;11.454.026;-12.563.284;-0.99630426;1.472.403;-0.75104545;0.10734849;0.65113447
0.82434458;-0.39300033;-0.89818589;-0.46692207;-0.196824;0.35175379;0.098361207;0.93192231;0.94149521
0.33572336;-15.287.085;-0.45751263;0.13916417;0.076102067;-0.55142023;0.67906933;-11.626.539;0.90029219
0.20206906;-10.587.411;12.039.787;-15.542.399;0.41923309;-0.021408606;-0.28780695;-0.017332597;0.70699519
0.11307911;-0.28146913;0.27118894;0.23273239;-0.54173075;14.687.179;0.88131471;0.85915751;0.30971474
-0.14291562;0.58693786;-0.57849753;0.25035784;-0.53321155;12.480.917;-0.35305112;11.004.516;0.70902106
13.355.946;0.063648039;0.42134575;11.716.952;12.773.062;0.26339914;0.73838624;0.73336758;0.61484457
0.65868932;-15.504.985;0.40812798;11.786.604;11.832.745;0.44526912;0.76650747;12.409.324;0.42542226
-0.38105679;0.28359422;13.101.359;-11.379.372;10.130.784;0.3643971;-0.98040485;-0.68273324;0.72007714
12.859.768;0.57201096;0.030655569;0.70596881;-0.62338713;14.580.156;-0.010903537;15.403.652;0.42585315
-0.74468494;0.51473826;0.0069539365;-0.57759978;-0.056028344;0.44550485;-10.433.781;-0.94779182;0.88917498
0.18535741;-0.74022928;0.63588214;-0.19822488;0.80941573;11.847.962;0.31465311;14.791.742;0.63732451
-11.579.099;-0.32667359;-0.4271435;-14.773.414;0.75398958;14.554.439;10.744.023;10.573.327;10.691.382
11.748.493;11.009.551;-0.46152584;14.711.596;-0.88187617;12.045.718;-0.39564382;-1.399.361;0.52453302
0.78229235;-0.22763809;-0.27247318;14.459.653;0.34128626;0.81489925;11.659.212;-10.972.637;0.39698919
0.42219594;0.54652631;0.98532285;-10.226.056;-0.54993394;-13.322.905;15.243.138;-0.56149937;0.67108798
-10.106.763;-0.54927686;0.98631996;0.72069383;-0.17415329;1.466.219;-0.54543325;0.22439303;0.3405047
0.15558508;1.444.586;-11.048.517;-12.800.906;0.9699372;0.090626433;0.070660872;14.624.016;10.836.962
11.134.123;0.9283778;0.71081578;-0.85671799;0.010324492;-0.51398049;0.075254647;-12.369.537;0.63839964
-13.460.711;-10.449.496;-0.79606714;-0.94012277;0.73614808;0.90964353;-1.256.987;-15.619.294;12.254.775
-0.80780003;-0.96453988;0.54262027;15.676.903;0.84894918;13.888.956;10.293.033;-0.19884987;0.44807241
12.683.289;-0.40364434;-0.22451491;-0.36649077;-0.82497435;11.346.228;-12.500.349;0.58480903;0.68820976
10.973.445;-13.518.371;-0.36937064;10.527.873;-14.954.922;0.13742444;-15.060.472;-11.581.212;0.80366147
-12.221.141;-0.32794931;-0.22524568;0.74553898;11.460.513;0.62194657;-0.32253495;0.76436907;12.222.701
-0.33881946;-14.904.684;-0.085002334;-15.395.217;0.57949624;0.9771988;15.440.493;0.77859322;0.94721818
11.688.398;0.7568704;0.79043816;-0.58460557;0.65612119;-0.46616638;12.813.582;10.829.141;0.76312397
0.31155441;0.41223683;-0.90112564;14.359.532;0.43856857;0.27371368;0.17033547;12.912.984;0.89047332
-0.73994851;12.526.087;0.39946908;0.35030078;0.84562087;10.141.132;0.83731384;0.72969713;0.42365187
12.507.182;0.78282846;0.29329912;0.16066014;-0.21518469;10.597.871;15.401.639;-0.75813004;0.53836655
0.4242647;0.0078635029;0.31945613;-15.547.908;-0.63598109;-0.98932393;-11.895.051;0.40814628;0.37010441
-0.79853381;0.21500119;0.11735808;0.39890556;-12.359.391;0.88264926;10.839.629;-15.238.209;0.5923039
-0.073876027;0.69347026;-0.48297914;0.24708751;-0.21702677;0.085654982;0.068499658;-0.5951332;0.75992402
-0.70528194;-0.15407664;0.44496856;-0.38568992;-0.17989502;0.75385087;14.508.389;0.42727172;0.47874549
-0.44441104;-0.89380751;-1.545.562;-11.848.453;-12.835.332;-0.071672496;-0.79233083;-0.52509146;0.81251205
14.910.396;0.87325138;15.688.348;0.86109856;0.97422688;-1.369.655;0.50703329;-0.47843156;0.58686165
-0.58194447;-0.7849693;0.018668415;-0.83392333;-0.14978485;-13.424.191;-14.323.874;14.779.029;0.54164679
-0.96271961;-1.431.445;-0.39920801;-11.045.276;-10.181.916;0.88092197;-0.10996534;-14.592.473;10.537.976
-12.263.265;0.019613381;0.95280387;-0.12486445;-0.49025474;-0.6706611;-0.93105285;0.84501133;0.63992644
11.197.433;-0.22512634;107.681;-0.01297672;0.68608555;0.23335616;0.067762255;-1.034.887;0.42523438
13.856.584;-12.208.643;-0.77028473;-13.298.478;13.948.165;13.093.189;-15.179.133;-14.896.528;1.088.646
0.13357366;-13.250.928;0.32791725;-14.625.264;0.11640516;-11.343.953;13.059.238;-12.432.751;0.80972274
-12.662.232;-0.085054912;0.95173689;-0.86075794;-0.79076636;0.54319606;14.949.963;-0.99195388;0.18407744
-0.26417689;-0.093252698;-11.479.233;0.27553826;-14.732.623;0.027910081;-0.054634776;0.6632906;0.64909031
-0.95056998;0.35663091;-0.62653937;0.26396342;0.91369968;0.98743333;-0.90162059;15.544.022;11.708.466
-12.309.727;-0.26304573;0.37146719;0.50436446;0.44561227;-1.242.049;15.057.609;-0.64590092;0.63788051
15.707.529;-0.78863856;0.90439863;0.83644008;-0.15152576;0.76581391;-13.471.574;-1.454.177;0.47143299
0.84023495;-0.26890081;12.024.928;-0.5787008;11.382.022;-0.070659484;-0.21659896;12.379.021;0.56746585
0.36976829;13.359.322;0.43032631;0.14653804;0.60632309;-0.051921333;0.72719462;-13.467.689;0.48807251
0.62537052;0.049359445;0.54805165;-0.14373202;-0.85442931;0.72090865;116.448;0.030740622;0.36856726
-11.666.928;0.20372891;-0.045566185;0.18067362;-0.17344331;-0.8111173;-0.70709887;14.364.329;0.70870211
12.160.313;-0.26417603;0.71774336;-13.385.472;0.33630681;-10.779.632;0.4343301;-10.119.936;0.61182829
-13.644.043;-0.93618643;-0.60313687;-0.017042871;0.58340508;0.23718397;-12.753.574;0.0058530994;11.836.339
-10.577.164;-13.892.899;0.99819428;-0.55459389;0.37856678;-0.33007493;0.15531302;0.98366929;0.83992379
12.336.019;-14.793.771;0.54646258;0.045908092;0.84682971;0.48334857;-0.31758686;14.692.758;0.72207454
-13.637.862;-13.264.361;15.212.946;-12.544.916;12.522.321;-0.51915663;-0.11648984;11.993.719;0.54787674
-0.094301469;-0.67062074;-10.248.677;-10.126.041;0.73575214;-12.627.014;-0.63246743;13.851.203;0.59972332
-15.620.893;0.91164501;0.40110918;-0.8301752;0.47761603;-0.76330342;12.694.777;0.51550008;0.91439224
0.25552692;0.47039269;-0.41583492;-0.94157246;0.52332446;14.238.394;15.553.557;-0.50265915;0.21496979
0.083789302;-14.987.466;11.062.042;-0.80608265;-0.94523204;0.9574579;-0.32901642;-0.44962141;0.61561997
0.81329518;-0.1442178;0.029403942;-12.836.002;0.51913093;0.75736685;-0.57587107;-12.566.227;0.82579812
-0.017473783;14.409.309;0.96200149;-0.15127973;0.83070312;-0.66875469;0.58181791;0.87019082;0.82433557
-15.137.594;-0.81246919;-14.182.918;-10.099.216;0.38964969;0.85851962;-11.643;11.833.855;11.337.026
-11.361.541;13.335.151;11.753.669;0.27228423;-13.783.208;-0.19575198;0.59010852;-0.26315228;0.34095332
-0.74206584;0.26612553;0.057717811;-10.194.212;0.6673176;-0.75595585;-0.054170899;0.56216529;0.78097023
0.22232775;-0.85622159;-0.68887713;0.8335526;0.12114393;-0.74920144;0.6115697;15.429.763;10.039.834
13.087.769;11.196.424;-11.889.343;1.156.956;0.31405699;-0.32529426;-0.63918563;-10.455.105;0.81830099
-0.81919876;-0.31012526;12.525.699;-14.994.788;0.48009137;-0.84933984;14.539.332;-0.96760084;0.64726997
13.270.013;-0.37300261;0.12996283;0.11627627;12.856.478;0.54230287;0.9468321;15.578.506;0.64783574
0.74459137;15.641.263;0.87843475;0.18463915;0.0087263071;0.72404545;12.402.513;0.76194032;0.40950641
13.836.584;-0.57707562;15.089.596;-0.66339424;-0.99181165;-14.980.822;0.43686443;0.79930046;0.64451593
10.781.391;-0.81348444;-0.99341722;-0.1547435;-0.087829881;-15.445.283;0.47839825;0.3926579;0.940799
-0.42338747;-0.021714167;12.016.619;0.46470461;0.39174415;0.093524842;11.037.148;-10.848.644;0.15098574
-0.1658732;-0.52525591;-0.96692673;0.29096604;-0.73435218;1.075.696;-0.96959643;0.48820133;0.79643726
-12.381.858;-0.10074245;0.32129132;-11.935.943;10.604.358;-0.64282404;-0.56607872;-0.64018467;0.82285094
-0.27925653;0.14008472;-0.45455859;14.709.594;0.48985802;-0.0065698605;-13.425.275;0.37115537;10.106.128
0.074981232;13.509.746;0.58714076;12.212.664;-10.705.237;-0.46390252;-0.94141229;-11.947.103;0.61165172
0.43091235;15.404.664;0.33230893;-13.419.493;-0.3909653;0.62329479;-12.557.633;15.639.979;0.39997031
0.97278419;0.75364686;-0.63561811;-0.6486396;12.580.935;-14.960.181;-0.39391035;0.40641909;0.65115714
0.73575866;-0.35884759;-1.418.557;-0.35917014;-12.829.212;-14.105.241;-11.154.496;0.86325051;11.948.948
0.58717688;0.70640388;-0.14019506;15.685.646;-13.069.715;-0.22104427;-14.778.823;0.77642308;10.340.469
0.93922095;0.45144269;-0.063851787;-13.803.182;-0.25417516;1.413.033;-13.355.174;-0.83322409;0.79983459
-10.164.969;0.45100406;12.676.999;-14.874.933;0.64416137;15.465.143;0.63794464;12.227.182;0.57750337
-0.28201337;-0.63785922;-0.049368506;0.49394158;0.491918;-12.711.775;-0.32016077;10.679.177;0.81031506
0.86466345;-13.858.553;-0.35602243;-15.532.138;-10.060.278;12.914.484;0.60611418;0.57469024;10.551.291
-0.60895493;-0.30189392;10.650.944;-13.711.689;-0.25731422;0.109553;-12.239.717;15.631.057;0.26795286
0.60342684;-0.25902649;0.24702883;14.876.124;12.930.652;0.28397353;-0.14441565;11.198.639;0.71997022
0.7338514;0.78923575;-13.719.097;15.066.503;-0.99086276;0.66386068;12.573.419;0.27086765;0.86795549
-0.052320964;0.88111124;-15.373.955;1.035.504;0.15224401;-1.430.582;-13.480.117;0.30475906;0.93375119
0.28749266;-0.63115351;0.59381636;-0.70777674;15.086.535;-11.827.246;11.331.642;12.895.394;0.72688344
0.11961653;13.612.821;-0.56827522;-15.338.434;0.14571902;-11.953.071;0.75671247;-0.55846607;10.372.928
-0.22434632;-11.518.501;-0.55996345;0.60389207;-13.426.642;0.95911444;0.89933927;0.93966851;0.56283038
-0.67745321;-0.65037565;0.90582045;-0.87178316;-0.096983141;0.32449531;0.99285083;0.22234873;0.77946332
-0.82428776;-12.626.656;-0.033714308;0.32854731;0.49093576;-0.012107538;-12.962.613;-14.802.098;10.882.925
0.61917222;-0.16207105;-11.497.036;-10.252.433;13.350.735;0.71213244;0.68160092;0.38534994;11.057.568
14.726.452;-0.16727215;0.86811274;0.37205533;13.250.166;-0.65808787;14.198.476;-13.875.685;0.36987776
12.814.679;0.38236937;0.81449923;1.364.586;-11.958.432;10.648.653;-0.16001989;-0.82136089;0.36196002
-11.288.843;-12.165.714;1.369.346;0.97062414;13.731.027;-0.46169491;-0.25101284;-0.45432494;0.58238669
-10.804.992;-14.313.561;-0.71024452;-10.106.782;-0.40333091;0.027520177;0.38619503;13.724.784;0.98509686
-15.448.716;151.506;0.97246832;0.12217099;0.77426867;0.71749805;0.24943496;-14.700.369;0.10232264
0.60649723;10.043.373;-14.315.553;-12.737.397;0.65669097;15.571.576;13.688.075;-14.259.515;0.55872619
-10.691.786;0.12030214;13.073.755;-0.93022745;0.59006285;-14.599.983;-0.33594015;12.429.062;0.54654438
0.22479369;-12.675.268;0.7608612;13.739.441;-0.82173611;0.78884603;-0.70408767;10.742.066;0.56218362
-12.283.673;-0.18271483;1.512.061;11.719.585;-0.47752702;0.61424937;0.77799367;-0.54299115;0.55352361
13.783.978;-15.521.114;0.86570696;-0.67933369;0.97261387;0.41574661;0.43099525;0.27443536;0.60791667
0.62730021;14.487.974;12.213.249;-10.136.174;10.146.807;0.55127656;-0.7754482;0.57703336;0.81906273
-0.15037052;-0.54638796;-0.35944225;0.98960229;11.742.283;0.74835981;1.510.017;0.10315838;0.16522303
-14.367.527;-0.26714739;0.13680318;0.65419812;-0.22963324;-12.537.078;10.697.531;-0.37632391;0.83954897
-12.213.618;-0.6103388;-0.39474895;-0.46644713;-1.570.076;-0.40575787;0.0060928585;-0.85000208;0.54594919
-0.26111571;-0.66414052;0.49813495;-13.033.093;11.107.028;0.82514448;-12.698.847;-11.631.557;0.87929183
0.23316665;-0.13102478;-0.19026092;-15.354.021;0.23915667;12.132.262;1.028.311;0.97364494;0.86077987
12.658.281;0.12293106;0.42600574;-0.46136713;14.091.375;-13.848.232;0.92247151;-0.50555011;0.7735744
-0.091862985;-10.655.759;0.18877962;-0.74669189;-1.093.411;13.360.397;0.21887022;12.273.947;0.73862216
-14.191.928;10.856.379;-0.18949224;10.119.777;13.582.896;-12.850.939;-0.25322654;11.260.613;0.80672226
-14.027.386;-0.053613448;0.77886556;-0.27351006;-11.807.229;-0.12333999;0.87966203;0.75731269;0.6109517
-1.316.827;0.5558671;-0.62315527;-0.73347828;10.308.561;0.47590784;0.14475538;15.625.683;11.663.577
0.60861513;-0.63817057;0.69931285;0.040141971;-0.28496877;0.088118049;13.110.395;1.511.994;0.56777519
-0.031125384;-0.33538072;0.65294545;-0.77631284;14.586.598;13.099.117;-0.48933664;-0.25933249;0.7606085
15.216.487;-0.72647453;0.47104512;-0.45566903;-12.940.115;-0.59584836;0.40869588;-12.120.651;0.43712501
-13.556.976;15.132.082;0.041780577;0.77348795;0.7945542;0.97398613;14.301.093;-10.905.778;0.57656376
0.76135362;12.969.919;-15.105.997;0.10150255;-0.8379293;-10.544.445;-0.47884985;-12.897.514;0.68698409
0.36345448;-0.96928851;-14.381.317;0.068521622;0.68209885;-0.32446933;0.73099928;0.13780671;124.186
1.323.249;14.675.789;0.73503084;-13.216.005;0.36373835;0.44890029;-0.86403185;0.76363467;0.46349529
0.51092323;0.95503642;0.92103934;-10.802.541;-0.18892526;-14.384.487;-13.419.873;10.019.605;0.37904316
11.139.834;0.90032197;12.812.453;-0.56642556;0.88339816;-14.513.383;-128.722;10.139.556;0.25544954
-11.726.695;-134.053;14.142.585;-0.88863832;0.10597205;-13.174.694;-12.998.687;15.533.559;0.3373814
12.952.858;12.144.805;0.15236283;-0.21268755;-0.21071716;-0.76361222;-0.25804549;0.61840109;0.78232033
-13.679.828;0.84595436;0.36403848;0.49279086;-0.94838809;-0.6245952;15.689.263;10.787.001;0.56617533
-1.512.379;-0.89340808;-14.277.383;10.977.895;0.88250287;-15.104.139;15.576.836;-0.41875293;12.089.222
0.072231702;13.032.006;-0.51243964;-0.026099514;0.76687387;-14.575.843;10.971.672;-0.81286784;11.556.772
13.434.571;-0.2920217;-14.676.134;1.168.439;-11.054.886;0.51956155;-10.592.685;0.91664632;0.87668983
0.85757356;-0.84103022;-15.353.204;-0.1413347;-0.5673407;-13.565.432;0.27996891;-0.29561261;0.82722592
-0.38822492;-11.695.754;0.91131524;-0.36819264;-0.56148402;-0.88314895;-0.6683131;-15.030.864;0.75917621
0.19165702;-0.1084716;12.110.677;0.72387159;0.48238719;0.94094951;-11.445.189;-0.82688612;0.26348877
1.047.062;-0.95847625;0.036616303;-12.786.122;-0.96915658;-0.23908491;0.042897159;0.93092305;0.45460957
-12.313.739;0.97674861;-0.34194917;-1.140.857;0.54321658;-0.20315676;15.478.386;0.89232539;11.092.381
11.115.448;13.922.498;-11.667.118;-12.439.357;0.37277105;0.45557544;-10.059.591;-0.65058051;10.028.621
-13.176.559;0.96098659;0.89595426;0.47179172;0.82726393;0.7951099;0.89651692;-15.641.996;0.33578587
-0.75576473;0.37377588;0.64958895;0.023618581;-0.86427528;-0.92313662;0.68146619;-0.65604944;0.65195208
-0.67878767;-11.341.362;0.60706278;11.168.086;0.84985264;11.689.745;-0.84459031;0.76733839;0.6650666
-12.613.957;-13.845.521;-0.98881531;-0.81420029;-13.484.334;-0.56599378;-13.136.517;0.41842177;12.287.791
-0.81014661;-0.39033877;0.0062729598;0.5133213;0.3299312;0.085058223;0.56905746;15.303.571;0.93115179
-0.47153908;-0.77819115;-13.845.147;0.5776075;0.24271749;0.14889368;11.406.489;0.49263121;0.870446
10.809.109;-0.60848656;0.23862804;0.32802105;15.655.566;-13.933.107;0.8870803;15.561.494;0.77204484
-0.96016509;-0.94959097;-11.923.835;-0.44536479;14.710.882;0.058352514;-0.84017967;0.44401516;13.936.948
0.86673335;-0.48476999;-0.16945819;1.169.336;0.24522163;0.55379993;0.55921231;1.280.228;0.55014755
-0.37765899;-13.795.412;13.407.078;-0.77351859;-0.32963864;-0.82356208;-0.96387897;0.023451458;0.66548862
-12.975.596;-0.99542042;-13.684.993;-0.61653197;15.327.493;0.24943693;12.794.398;14.495.768;13.516.462
0.85209346;-10.501.212;-0.76710199;-1.080.266;-0.14233964;14.019.511;-0.65703366;-0.014286986;10.622.256
-13.860.525;0.081198872;0.41304159;-0.76656589;-15.504.013;0.64718488;-0.066493346;-13.603.316;0.66963891
-0.47459072;12.582.352;-0.92972839;-0.0014383667;-12.254.533;10.425.572;0.85331505;14.182.323;0.4811524
0.057557037;10.992.896;0.33679164;0.95811282;0.088385174;-15.455.979;0.29551938;0.96754021;0.89524309
-0.24942481;0.054021776;-0.69278472;-0.80177734;-0.48371296;0.96580752;-0.063761579;0.5646983;0.92303729
-11.980.981;0.023720179;-0.89045611;-11.808.471;0.67807242;-0.28227103;-0.3577683;0.13288774;11.698.569
11.743.152;-0.31722316;0.65159627;-10.558.404;-13.350.315;-0.32422497;-0.0034061509;-0.22810769;0.42877095
12.310.961;-0.28688788;-0.21341069;13.469.569;-0.62046857;14.141.921;-0.69851096;-10.629.723;0.29625985
0.50335498;0.62020181;0.90535716;-0.011886339;-12.693.041;-0.96291547;0.2579715;0.86205702;0.57951392
-0.42179242;-0.072664628;-15.369.713;12.882.325;13.616.773;-13.766.243;0.32921461;-0.43302414;1.270.525
15.094.206;0.80513798;14.390.444;-0.53330884;-0.79195001;0.90516204;0.76533638;12.334.316;0.37121039
0.47160661;11.145.343;-1.101.869;-0.35784518;0.62433083;14.668.138;13.282.699;-10.844.707;0.63353689
0.05408635;-1.339.064;0.57674881;-1.295.639;0.20876827;0.66273504;0.07556746;0.82137505;0.95438243
1.109.002;0.72100548;-15.377.177;-14.258.884;-0.390642;-14.997.948;0.85886582;0.69240342;0.74114451
-0.072277454;0.81631371;14.609.683;-0.83818862;0.40849686;10.878.995;-0.66036122;0.76506936;0.74054624
10.291.934;0.44947033;-0.19410086;-0.53467153;12.268.259;0.25741483;0.5558604;-0.018026143;0.92652726
0.044734606;-12.824.795;-12.798.986;-12.694.627;0.99067163;0.39799764;-0.75078024;-13.724.931;13.523.134
10.138.846;-0.16598322;-0.77103552;-1.304.246;-0.22290366;0.69553078;14.142.674;12.237.463;0.85700346
0.360554;0.054346224;0.27566132;-15.702.953;-15.633.409;-0.080458838;0.30278771;-0.50306122;0.62264663
-0.30119394;-0.80647709;-0.8092994;0.56693506;12.097.877;-13.868.432;-0.42705269;-0.92407354;11.583.052
-10.607.108;15.117.875;12.012.143;0.02701437;0.5139579;-11.979.806;10.646.794;11.300.244;0.72866371
11.713.642;-0.58860098;0.9335583;-15.004.124;-12.892.955;0.0072274173;-0.44487307;13.930.522;0.25297595
-12.432.301;0.25862998;12.006.899;0.13299177;15.171.193;-10.509.108;0.0088046829;-12.614.278;0.58198567
-0.23633808;-11.700.842;15.462.608;15.202.435;10.589;-0.6244636;0.32545103;-13.496.158;0.42160284
-11.610.159;0.76524928;0.75059236;0.15923066;-0.18984829;0.70130887;0.34256759;-0.69336584;0.19718486
-0.76170018;-0.13572953;-14.303.188;-0.4471997;10.779.287;-0.35741546;-10.058.354;-12.324.771;12.781.274
0.095057125;-0.40986958;0.099398748;-13.956.684;-0.81633698;-0.35646297;-0.16629631;14.194.514;0.41462469
-14.455.686;0.83467726;-0.73253498;12.733.861;-0.84048159;-0.056027351;10.753.407;-0.53427893;0.64340011
14.066.504;12.094.987;0.18616958;12.711.627;-13.735.638;0.82611048;-0.33195897;-0.95416394;0.29149441
10.884.226;-1.202.229;-0.074218237;-15.393.126;-10.637.583;-14.006.461;0.23422273;11.971.026;0.25168669
-0.37616224;0.86138605;-0.17362322;-0.2114734;0.21882161;-0.70590372;0.16574446;0.94397623;0.99507744
-12.743.086;0.85637317;0.45403478;-10.921.578;-10.702.367;-14.700.317;-0.92549343;0.36557247;0.57534177
-10.682.971;14.279.916;0.034019736;0.42947664;12.907.011;-13.386.176;-0.74288137;-0.77879062;0.92751471
-0.66693336;-15.137.067;-0.00015270012;-11.660.083;0.11569182;-12.005.508;-0.91803756;-12.590.285;0.67087806
0.053589455;-0.25197151;0.57516173;0.15367274;-0.21336704;0.79179134;-10.957.025;12.754.429;0.74384562
-0.95912282;-0.018244722;0.062532529;0.38862129;-15.026.007;-0.14944826;0.5449435;12.816.896;0.56607052
-0.46535575;12.370.353;-14.493.216;0.18690479;10.533.429;14.972.289;11.228.174;-0.54312147;0.42412974
13.316.133;-0.2073743;11.620.901;-0.28386585;0.65868431;-0.23026222;-0.35541177;1.225.647;0.48688216
-0.28139136;-13.136.082;-0.033378482;11.459.587;-0.46526817;0.42509872;-12.379.374;0.026015218;1.019.819
-12.476.204;1.299.668;13.529.315;-0.9774185;-0.33798903;0.65246699;0.75350277;0.55638631;0.52695753
13.745.715;0.026560545;-0.12743172;-0.084731711;-0.58204003;-12.872.064;0.36104706;-13.365.597;0.62300651
-0.84890992;0.29692906;0.82127806;-0.94439832;0.57271001;-10.715.268;-14.390.066;-11.707.967;0.43510936
14.848.228;-15.040.921;-0.9377322;-11.764.767;-0.30273111;-15.415.793;-14.039.954;13.561.716;0.92010627
-13.959.656;111.986;0.90532924;0.13979199;13.783.831;-0.60936849;-0.44778571;0.92124292;0.72031876
-0.58046487;0.20549011;11.353.734;-0.42736887;0.38076371;-0.064084495;13.216.097;15.610.934;0.60707014
-1.227.951;10.619.499;0.1865332;-11.077.242;0.071420549;0.49817184;12.339.245;-12.846.553;0.40567559
-1.050.861;0.8040009;-0.24601775;-0.44196963;0.27677986;0.42973153;0.91569493;0.96481026;0.9843767
0.21388835;0.85304905;-0.4843799;-14.585.559;-0.85967901;-0.023663556;-0.57765696;-13.352.245;0.61269523
0.83942057;-10.335.164;-11.064.588;-0.1009019;-0.44046777;12.688.732;-11.591.689;-0.72112468;0.94386889
-0.75114849;-0.44516572;-11.656.264;0.60178851;-13.494.462;0.82124163;-11.360.828;0.32188407;0.78872421
15.082.237;13.735.045;0.28813219;14.728.098;-0.98470448;-15.501.272;0.45703045;0.082980322;0.8588557
-0.79589114;0.067162675;14.434.807;0.90557362;-0.018085944;0.24028775;0.11673867;-0.21687;0.23006631
0.35919514;0.97131797;12.021.819;-10.406.078;0.76402139;15.696.674;-14.685.226;-0.68664269;0.78563213
-1.148.442;12.256.685;14.885.705;-0.24902298;12.183.939;14.468.276;-11.073.338;-13.338.276;0.27241537
0.080283165;0.38754635;-12.401.654;-0.72777661;0.64562856;0.90511764;-0.16399432;0.76418749;11.585.393
-15.656.938;0.9699357;10.081.291;-15.213.025;0.018112817;0.72056579;-10.757.792;0.86836547;0.57594742
-0.63592845;-0.015024977;10.164.004;0.89140803;-0.31237794;-0.2904491;-0.75611753;-12.209.411;0.54464669
-0.3512647;-11.973.752;-13.400.085;-0.36062675;-0.53468784;0.45699661;-0.32496864;0.5253734;0.93286365
-0.65322064;0.7575691;0.55570146;-0.92150612;-15.436.107;-0.45196475;14.817.254;-10.662.716;0.59787191
11.870.053;-0.41118265;-0.28044631;0.29835131;-0.1931834;0.19953822;-0.046988616;-11.823.772;0.57149998
0.88541212;0.75696137;-10.721.619;0.40864506;-15.682.296;15.595.568;-11.979.197;15.010.265;0.55300012
-0.602949;-12.004.706;0.35109109;0.57592313;0.72724756;11.631.671;10.309.427;0.7637179;0.3011592
10.141.227;-10.007.227;0.87691972;0.29304612;-10.872.996;-0.78110208;11.712.857;-0.74086267;0.37496332
1.219.678;0.94036278;11.785.891;-0.79109727;0.40047874;0.73306095;0.57937872;-15.471.729;0.27264556
0.23663955;-0.67542265;0.80598525;-0.75166698;15.546.542;-0.7709901;-13.190.721;-0.37313252;0.62068902
-0.055398151;-12.541.434;-0.35337071;-0.92288295;0.44709717;10.390.713;0.57468532;-0.61937031;0.87387227
-11.653.024;-14.424.224;-14.913.303;-0.85082837;-0.32748083;-0.44241146;14.803.696;14.812.524;10.066.019
-0.54882658;0.87738818;-11.613.622;0.65730611;0.10009798;0.54037657;-0.84255427;14.288.498;0.93501042
-0.41225667;-0.37285509;-0.29893499;15.039.836;-15.469.801;-0.23528352;14.900.909;0.34391823;0.31114706
15.556.052;0.90186416;-0.79369375;0.19782481;-0.27400082;0.85497153;-0.81896954;-0.29681697;0.72066349
0.72240461;-0.55357406;-0.40851821;10.365.001;0.44301017;-0.13833565;-1.103.581;0.24640023;10.318.416
-0.80131559;1.478.243;15.559.402;0.32535936;0.097355438;-0.22867712;0.077197527;0.62958399;0.63637403
0.29664252;11.155.515;0.069678211;-11.980.704;-0.5169328;-1.208.541;-0.018936848;0.53401537;0.56626225
-0.036789656;0.048669613;-0.73236706;-15.015.946;15.557.157;-15.527.497;-0.97074102;-0.33386033;0.46752599
0.57000019;1.176.098;-0.13319855;-0.88725645;-0.56211198;0.14625037;-0.95369664;-0.3060655;0.70073874
1.277.235;-0.22116753;12.875.812;10.210.969;-0.64694258;13.045.891;-0.37364263;-12.557.521;0.44483479
-0.014641594;-0.65864072;10.871.068;-0.9448719;-0.11181043;10.534.135;0.23195157;-0.20571943;0.49002337
-10.370.499;11.979.441;-0.49867612;0.28883831;-0.52541985;-1.295.073;-0.30642875;13.671.326;0.9794044
-0.14241767;-0.62161397;0.51964436;0.74489079;0.28550303;-13.383.702;-10.775.845;-0.2113929;0.84515566
0.27987878;14.710.985;0.035169745;0.13272388;1.237.473;-0.18492886;0.3195676;0.2607564;11.035.963
0.95840903;0.41777505;0.47848727;0.15941633;0.86457295;-10.642.011;-11.508.572;0.010993182;0.56371927
10.351.084;0.085671073;-0.54171822;-0.46834889;10.114.729;-0.94151685;0.32972572;-0.59155619;11.230.141
-10.727.172;10.242.862;-0.32259705;12.913.566;0.66664561;0.12845467;-0.069266158;0.85584725;0.90132413
0.44222394;-0.74984249;0.50036912;-14.338.633;13.933.548;0.66352608;13.745.535;-11.280.184;0.60488854
-0.55052697;1.467.011;-0.33980127;0.21619332;0.68167496;-0.77114326;-1.151.407;0.90704486;0.75387899
-0.7163392;0.83407953;0.37542952;-12.615.905;-0.4773099;-1.534.994;0.51279035;-14.462.325;0.72271086
-0.92983848;0.58826469;15.259.513;-0.94279075;14.801.154;0.11497463;1.078.733;-0.32730479;0.38831953
-15.135.475;0.37263173;-12.988.735;0.70916113;11.695.282;0.29914649;0.13401795;-0.08290918;12.993.852
-0.71724046;-15.142.058;0.75972357;-0.33137969;-0.68468895;12.068.294;-0.082280936;14.125.487;0.71019546
-0.36935105;0.78473834;12.414.538;0.54538669;0.086660068;10.596.403;-0.59491971;-0.31038132;0.36148529
0.10392861;0.69139713;-13.436.513;-0.85319973;-12.032.219;-0.31481736;0.87389522;-15.350.171;0.78858326
0.0026721684;-0.43961208;-0.98023527;-14.989.718;-0.11866614;-0.69336929;0.6113044;-0.2743647;0.94448235
0.92883646;0.46569199;-0.3023897;-0.78690015;0.48945005;-12.904.539;11.850.747;0.61055609;0.9909825
0.38053794;11.780.538;0.83317682;0.67422931;14.973.826;0.89761895;-0.14644928;11.745.434;0.71470988
-0.58141634;12.330.293;11.243.616;0.047228634;-0.78938075;0.35369306;-15.060.776;-12.175.086;0.60803864
-15.112.739;-15.632.256;0.46490911;-10.512.824;-0.17650986;0.62602237;-0.83343371;-14.747.073;0.94641798
-0.20417863;0.0063844781;0.5865008;-0.58538614;-0.93778801;0.36412244;0.84127557;-13.804.843;0.42137299
-10.110.095;0.48977247;-0.99875935;0.88332184;-0.032748646;-0.016601419;-0.98998149;-11.380.796;0.93525244
0.83737363;0.63318114;-0.61881045;-11.767.701;-0.62778589;0.58169823;-0.74415462;14.543.355;0.55171257
-0.59649813;13.011.329;14.659.713;14.921.982;14.122.014;-0.034240628;-0.32641435;14.262.754;0.47574274
-0.52198893;-0.48501068;-0.9322242;0.040383471;0.1357383;-0.57078401;-0.82524402;10.595.395;0.97491352
14.004.116;0.85849822;-0.76948296;0.14098466;0.55734399;12.570.689;0.25537522;11.325.653;0.89321749
-0.094260052;-0.55553741;12.368.672;0.76830948;-0.94886384;0.3458132;0.67570725;0.11455475;0.34195057
-0.86599923;-0.10393054;0.10887124;10.317.057;-0.83023765;0.13607409;-0.24571263;-0.47468018;0.63026655
0.14971846;-0.035053595;13.920.152;14.285.994;11.503.653;-0.082154462;15.020.948;-14.459.788;0.39439782
-0.097553907;14.736.432;0.15870831;-0.72215681;0.82844522;1.530.723;-0.13155387;0.79583729;0.98571456
0.32284509;-0.79588581;0.19837596;-13.170.822;0.14013875;0.35992545;0.65533154;-12.642.523;0.78533759
0.52683346;0.44876654;0.87492471;-0.53899127;-0.88258577;-14.404.078;-0.26662674;14.438.097;0.51032142
14.818.251;-0.54474664;-0.93565281;15.268.972;0.98143228;0.17931011;-12.845.586;0.44778715;11.677.207
-15.127.379;-0.95584942;12.961.228;-1.108.638;-15.706.479;0.8776345;-0.55190845;-12.974.158;0.51611307
0.32293175;11.437.118;0.13172534;-0.093449005;0.92299153;0.62560497;11.977.387;0.12696172;0.54495719
-11.582.588;-10.410.497;-0.91502637;0.19890776;-0.46589753;-0.36783211;-0.93059797;0.7042266;1.109.282
-15.482.598;-13.932.814;-0.75223558;0.38815819;-14.909.717;0.49999625;14.296.671;1.556.985;0.69748352
0.2090942;0.55169597;-10.546.091;-13.132.051;-14.191.188;-0.32341786;15.144.521;-12.191.373;0.96411829
-11.959.816;15.142.448;0.051179046;-13.493.025;-0.15763957;-0.72865786;0.21286116;-0.57344834;0.82729329
-0.95213951;-0.12993033;-0.63016505;14.300.107;-10.856.323;-0.62453506;-0.71646535;0.46000784;12.579.107
0.66430012;-0.33208115;-0.87522498;10.066.185;0.14842194;-0.49972981;0.091446856;-0.10768649;0.89064388
-0.3281957;13.222.133;-0.96938886;0.75991462;0.10295969;-14.817.136;0.70850627;-0.32952604;0.89639978
0.65158232;-11.872.738;-0.21908281;13.109.333;-0.57409972;0.24427682;12.287.726;0.28363837;0.23818039
-0.4479486;0.88618233;-0.17822663;0.86675348;-10.629.149;-0.50101572;-0.84931274;13.139.562;0.96436831
-14.161.576;-0.22442007;-1.517.125;-0.039412001;-13.140.921;-11.028.686;0.99775735;14.078.774;10.439.649
-0.65471291;12.246.217;-11.532.905;0.47854448;-0.54992522;-0.51576553;-0.51378113;-0.2809204;0.91631074
12.392.127;-14.982.023;0.27288473;0.4198651;-0.027662374;-0.81715646;11.188.278;0.38452305;0.86395347
-13.113.431;-0.42103367;-0.35169277;0.65555822;0.034187937;10.944.831;-14.344.351;0.42286169;1.170.648
-14.705.592;-14.462.106;-15.645.393;0.4015526;-0.31480007;0.9521303;0.03165376;0.75381631;0.87037407
-0.77931863;0.041356647;-0.081338426;0.75350248;-0.40272324;-0.81910153;1.075.594;-0.65249744;0.4602945
-0.7084089;0.78918255;-0.46212005;0.35622796;15.627.206;-0.1804726;0.78493795;0.77552088;10.578.673
0.40778031;-0.01310297;-0.83464853;-0.75227481;0.93064861;-15.661.268;0.90453998;-0.2884971;1.181.659
-13.915.332;-0.31013609;-0.72665396;14.277.007;-0.57870189;15.122.241;0.43654616;-12.932.688;10.418.086
-14.820.319;-0.55497295;-15.024.198;-0.11925635;0.12812218;0.46574179;14.124.767;0.71022788;0.97212369
11.780.111;-0.041761794;0.95230963;-0.0053316101;13.585.672;-11.266.867;-15.196.321;-1.252.173;0.51892487
0.51508119;-13.153.171;-0.94656606;14.978.166;0.34282277;12.963.551;0.69081238;0.25698323;0.7210017
-12.597.911;0.85273348;0.089423766;0.22220476;0.1413038;0.89584419;-0.84285535;-0.57269925;0.88571507
102.612;-0.054148244;12.639.536;-0.75824986;-0.15106579;-12.003.322;-0.42864588;0.48352126;0.59829499
-13.444.532;0.99232807;-0.18102409;15.360.174;-0.55594653;13.244.703;-0.57931482;-0.75837027;0.2030271
12.510.305;-0.65744713;-14.102.065;13.777.958;-0.69681953;-0.95374455;-0.7484751;-0.48778489;10.506.309
-0.60971182;-0.73255403;-1.165.351;-0.065753149;0.41157998;-11.789.739;-0.68401445;13.561.821;0.67180051
0.4486912;-0.13405495;-13.662.793;0.72743625;-0.36231949;-0.98922584;-11.433.098;10.976.565;0.89158062
13.305.773;-0.53965391;-1.156.319;-10.576.269;-10.971.448;-0.61029357;15.139.529;0.88134679;0.65066796
11.564.722;-0.18529823;-0.3612282;-0.40403694;14.364.371;0.096048513;12.469.648;0.18619676;0.98559383
-0.20622542;-0.98895581;1.536.278;14.744.076;-0.94073973;-0.49125924;0.17222987;0.38266231;0.44055292
-0.85394963;0.786431;-0.52593062;-0.51418153;0.62320759;-0.48857484;12.605.667;0.56521426;11.698.255
-15.362.049;0.86553597;11.258.098;0.67242975;0.18012442;0.64589721;-0.55651987;-0.62008508;0.34458708
-13.868.397;14.891.089;-0.32693233;12.180.419;-11.442.707;13.917.745;-0.90815921;-11.071.594;0.38530476
-11.397.088;1.526.287;-0.10620162;10.121.592;1.071.993;-0.74437776;15.669.317;-0.37461297;0.51715164
-0.79526761;12.009.586;-0.50594827;-0.36453626;-0.048319369;-0.93499417;-0.55033774;-0.36857161;0.93945828
14.140.255;-0.22108006;0.8187873;-0.65521269;15.688.692;-0.20049602;-0.67759382;0.63762776;0.55239244
-0.62191056;0.81153015;11.822.644;-0.87742281;0.59673958;11.922.993;-0.045924592;0.63722642;0.65065069
-0.37200788;-14.079.938;-0.25589873;-0.20919922;14.384.259;-12.449.734;0.97717188;0.17504332;12.122.632
-0.56704892;14.663.995;-0.049555533;-0.56903979;1.068.195;-12.600.898;-0.91857204;14.224.116;0.33357279
12.009.515;-0.018053424;-0.35778856;-0.84378224;-10.492.577;-0.85376887;-0.6540044;-10.484.896;0.44367667
-0.34072169;13.105.963;-0.34398893;-0.29880438;-11.142.301;15.017.975;0.58079835;-0.77137727;0.76595108
0.6139959;14.855.249;-0.89153469;14.014.572;0.16904616;11.550.322;0.54950635;0.81518796;0.71171959
-0.7026993;0.9796188;13.734.787;-13.707.082;11.589.935;0.72517334;-0.72910073;0.37846262;0.7389082
-10.203.028;-0.63397922;-0.36704841;-0.19340675;13.287.773;-13.912.263;13.569.404;-0.90390643;10.773.998
-14.172.473;0.9935434;11.053.427;0.96119349;-0.82195389;0.53392292;12.765.123;0.7866332;0.29261951
-0.12008713;0.91896501;1.257.116;0.70948623;-0.99614203;12.538.172;0.40579263;1.122.272;0.21243484
-14.019.208;0.97537623;1.137.351;-11.505.865;-0.61191034;-0.89734669;-0.2409019;-0.096175795;0.67492786
-0.13788429;0.31781544;-11.330.863;-14.037.093;11.972.265;10.804.533;0.67462547;1.493.637;11.088.233
10.740.708;0.81655886;0.55287899;12.188.087;-0.11551772;0.773397;0.42244658;-0.91024253;0.30567933
0.3161166;14.280.639;-0.59394546;13.332.277;-0.0020707188;-14.270.139;0.060193295;11.100.722;0.93659261
0.53848966;-0.29818617;15.401.402;-14.226.466;-0.24505251;-0.90435264;0.075880378;-0.93538908;0.5895201
-0.53279711;-0.77463063;15.537.985;0.24087587;0.030505839;-0.42959211;-0.16510368;-0.55464268;0.53061783
-11.818.998;-0.45708326;-1.368.459;-11.121.067;0.6320401;-0.77473823;-0.87121291;-0.77405258;10.821.121
0.10062186;-10.042.651;-0.090509658;12.995.721;0.9732375;0.87604235;0.48805703;-0.166548;0.40459906
0.9746814;1.092.981;-0.66498297;1.556.163;-10.703.113;-10.009.077;0.076144837;-0.013231719;0.58105366
12.061.945;0.83930794;14.178.461;0.67245543;0.037979965;0.97277294;11.380.663;0.66758062;0.38433483
-0.18684782;0.49759363;0.75880263;-14.919.459;0.58596973;0.54665802;14.650.374;14.001.693;0.77329463
12.413.431;0.13654085;14.712.672;10.571.879;-0.49977296;-14.772.535;-0.91900009;-10.256.952;0.54684091
-0.063535879;14.794.727;0.11136441;-0.69180912;0.93457934;-0.19342688;-1.565.028;-0.94087169;0.84130081
0.29398675;-0.20756743;-0.68751077;-0.20151712;-0.48838165;0.62289732;11.297.197;15.469.307;0.65063336
-0.68986766;-14.179.033;-0.21567646;-0.26140194;0.7512249;12.484.985;-0.58671014;-0.55702412;1.047.745
10.127.572;14.218.706;0.5236405;-14.358.127;-0.22398169;0.81721897;0.62193909;0.041733017;0.9200949
0.26112341;-0.71677036;12.248.357;-11.307.785;-0.83223833;-0.043918456;0.85145953;0.83166104;0.61730605
-0.10383764;12.483.105;-10.422.848;-14.996.214;-10.591.769;0.13678273;0.52579601;0.781427;0.57719062
15.263.114;0.79917606;-0.1602502;0.86078278;-13.218.217;-0.7384789;-0.24658969;-15.552.674;0.30280125
-15.292.153;14.434.971;-0.98024236;0.14197807;14.853.123;0.81770328;-0.67221415;-13.276.776;0.95243824
-0.15256507;14.778.051;-0.42139206;-13.849.451;0.54850986;-13.287.876;-0.73611106;0.45535748;0.47134907
-0.62148758;0.039055585;-11.865.362;-0.71178436;13.722.993;0.64954799;-0.22679305;0.27339689;13.970.091
0.45389461;-0.18565269;0.71671031;0.22507327;-13.392.531;-0.081331443;-0.95884969;-11.685.925;0.45541221
0.81980826;-0.66326461;0.88387659;0.32881379;0.68422709;-0.34476504;0.98364134;0.70350205;0.65627668
-0.50793821;-11.175.849;-12.778.116;0.31195553;-15.660.675;-13.691.503;0.99946231;-11.957.434;0.51652363
-12.103.335;0.33282284;-0.25251117;-0.28155185;-0.63247794;0.85734597;-0.13283881;-0.091613996;0.78297725
-0.26337665;-14.230.377;0.33641442;-0.80347193;10.928.673;-10.717.713;10.505.517;-0.37603314;10.338.823
-0.067289108;-0.049614354;-0.74957301;-13.875.149;-10.708.028;0.63194311;0.87137721;0.89546824;0.87712075
0.045320379;-13.463.933;-0.28695441;0.080081978;12.008.471;-0.6569227;-0.86825405;-12.356.558;11.623.576
14.341.915;0.06006493;-0.49810073;13.361.526;10.455.124;-13.432.895;-0.047913358;14.017.208;0.63169895
-0.98435692;10.600.389;0.76545538;0.61198566;0.99944135;-11.824.246;-10.320.824;-0.081995462;0.76335268
-0.45990279;0.10269067;0.18665453;0.068673404;-0.48519889;0.70410411;-14.766.101;10.614.464;0.76843838
-12.682.947;11.877.828;-13.483.181;12.294.019;0.83679181;-0.501682;11.968.229;-13.755.534;0.69504555
-0.52320726;13.850.579;-0.87492265;0.3024652;-0.95034559;0.26538008;-0.61455712;0.053901476;0.76207905
-0.22650277;-0.53336802;0.9702225;0.43572271;-0.60134621;-0.8185619;0.6950651;11.434.283;0.66993985
0.77826097;-13.524.738;-14.779.263;0.13909431;-0.32210953;-0.53554973;15.177.258;0.47781223;0.90683348
-13.597.527;1.537.626;10.654.822;0.41306501;-0.73080141;-0.32138166;-13.151.645;0.67927733;0.74935992
-14.181.465;0.13831445;0.48175515;-0.53620923;10.479.896;-10.637.541;0.27682184;0.066343856;0.88580831
0.4759289;-0.12751858;0.97445866;1.160.829;-13.486.759;0.28781347;-0.1540737;-0.22419657;0.2894507
0.4420763;-0.63851699;0.60415487;0.7623436;-0.60447903;-0.7716801;-0.84433793;-1.302.146;0.65792007
0.10981734;0.12551585;0.40350491;12.940.863;0.43151147;-11.329.306;-0.21364624;-0.83301805;0.74689182
-15.564.898;15.361.945;-0.99155047;0.46195335;-1.524.192;0.028576016;0.088105238;15.440.942;0.80597921
0.1172712;12.119.259;11.603.138;11.744.733;-0.54870415;-0.38656876;1.094.601;-11.053.316;0.18312788
1.198.548;-12.473.514;15.292.574;0.74539516;-14.962.149;-0.24760721;-0.20758134;-10.715.067;0.52510151
0.10418962;-0.38679463;0.85971937;-0.81505384;15.646.415;10.759.406;14.898.153;-120.407;0.57628788
12.477.917;-0.90206686;11.188.796;-12.659.441;-1.342.883;0.32691809;0.83300787;13.359.617;0.50434507
15.035.399;0.28850291;-0.56488189;12.851.117;-0.63295676;-0.1331554;14.263.465;0.54619429;0.35653543
-0.97677427;13.909.786;-0.076996741;0.42202608;-0.67160478;-11.288.347;-0.88814482;0.15373049;0.95473533
13.181.068;-1.554.782;0.2519462;-0.72393544;0.080788341;-0.24642546;-13.432.716;13.592.281;0.2572578
-10.906.283;0.54704383;-0.40709036;0.20547643;0.64161953;-10.535.668;-0.88059139;-11.145.793;10.482.351
